!!!!SEGMENT: pl-cz--iii-112--002_dankowski-adalbert--vesperae-d-tecum-principium.krn
!!!cenid: 18xx:799
!!!COM: Dankowski, Adalbert
!!!COM-rismID: pe30000793
!!!CDT: ~1760-~1836
!!!CNT: Polish
!!!OPR: Vesperae D
!!!OTL: Tecum principium
!!!OMV: 002
!!!PDT:
!!!AGN: Sacred; Vespers
!!!SMS-siglum: PL-CZ
!!!SMS-shelfmark: III-112
!!!SMS-shelfwork: 001-002 M
!!!SMS-variant:
!!!SMS-altvar:
!!!NIFC-rismSourceID: 300033579
!!!NIFC-islandoraID: pl-cz:34440
!!!URL-pdf-islandora: https://repozytorium.nifc.pl/islandora/object/pl-cz%3A34440/datastream/PDF/view
!!!URL-scan:
!!!ONB-nifc: UWAGA: części Vesperae: Dixit Dominus, Tecum principium, Dominus, Gloria patri, Nunc dimittis – Magnificat, Et misericordia, Gloria patri
!!!AIN: 1 alto 1 bass 2 empty 1 organ 1 tenor 2 violn 1 vox
!!!key: G
**kern	**fba	**dynam	**kern	**dynam	**kern	**dynam	**kern	**kern	**kern	**text	**text	**kern	**text	**text	**kern	**kern
*part9	*part9	*part9	*part8	*part8	*part7	*part7	*part6	*part5	*part4	*part4	*part4	*part3	*part3	*part3	*part2	*part1
*staff9	*	*	*staff8	*	*staff7	*	*staff6	*staff5	*staff4	*staff4	*staff4	*staff3	*staff3	*staff3	*staff2	*staff1
*Iorgan	*	*	*Ivioln	*	*Ivioln	*	*Ibass	*Itenor	*Ialto	*	*	*Ivox	*	*	*Iempty	*Iempty
*I"Organo	*	*	*I"Violino Secundo	*	*I"Violino Primo	*	*I"Basso	*I"Tenore	*I"Alto	*	*	*I"Canto	*	*	*I"Clarino Secondo	*I"Clarino Primo Ex D:
*I'Org.	*	*	*I'vl 2	*	*I'vl 1	*	*I'B.	*I'T.	*I'A.	*	*	*I'C.	*	*	*I'Clarino Secondo	*I'Clarino Primo Ex D:
*ICklav	*	*	*ICstr	*	*ICstr	*	*ICvox	*ICvox	*ICvox	*	*	*ICvox	*	*	*ICbras	*ICbras
*clefF4	*	*	*clefG2	*	*clefG2	*	*clefF4	*clefGv2	*clefC3	*	*	*clefC1	*	*	*clefG2	*clefG2
*	*	*	*	*	*	*	*	*	*	*	*	*	*	*	*ITrd-1c-2	*ITrd-1c-2
*k[f#]	*	*	*k[f#]	*	*k[f#]	*	*k[f#]	*k[f#]	*k[f#]	*	*	*k[f#]	*	*	*k[f#]	*k[f#]
*G:	*	*	*G:	*	*G:	*	*G:	*G:	*G:	*	*	*G:	*	*	*G:	*G:
*M2/4	*	*	*M2/4	*	*M2/4	*	*M2/4	*M2/4	*M2/4	*	*	*M2/4	*	*	*M2/4	*M2/4
*	*	*below	*	*	*	*below	*	*	*	*	*	*	*	*	*	*
=1	=1	=1	=1	=1	=1	=1	=1	=1	=1	=1	=1	=1	=1	=1	=1	=1
!LO:TX:rj:a:t=andan	!	!	!LO:TX:a:t= Solo	!	!LO:TX:a:t= Solo	!	!LO:TX:a:t=Tacet	!LO:TX:a:t=Tacet	!	!	!	!	!	!	!LO:TX:a:t=Tacet	!LO:TX:a:t=Tacet
!LO:TX:a:t=Solo&colon;	!	!	!LO:TX:rj:a:t=andan&colon;	!	!LO:TX:rj:a:t=andan&colon;	!	!	!	!	!	!	!	!	!	!	!
!LO:TX:rj:b:t=Tecum proncipium	!	!	!	!	!	!	!	!	!LO:TX:a:t=andan&colon;	!	!	!LO:TX:a:t=andante	!	!	!	!
8G\L	.	.	8.g/L	.	8.b\L	.	2ryy	2ryy	0r	.	.	0r	.	.	2ryy	2ryy
8G\	.	.	.	.	.	.	.	.	.	.	.	.	.	.	.	.
.	.	.	32f#/LL	.	32a\LL	.	.	.	.	.	.	.	.	.	.	.
.	.	.	32g/JJJ	.	32b\JJJ	.	.	.	.	.	.	.	.	.	.	.
8G\	2	.	8.a/L	.	8.cc\L	.	.	.	.	.	.	.	.	.	.	.
8G\J	.	.	.	.	.	.	.	.	.	.	.	.	.	.	.	.
.	.	.	32g/LL	.	32b\LL	.	.	.	.	.	.	.	.	.	.	.
.	.	.	32a/JJJ	.	32cc\JJJ	.	.	.	.	.	.	.	.	.	.	.
=2	=2	=2	=2	=2	=2	=2	=2	=2	=2	=2	=2	=2	=2	=2	=2	=2
8G\L	3	.	8.b\L	.	8.dd\L	.	2ryy	2ryy	.	.	.	.	.	.	2ryy	2ryy
8G\	_	.	.	.	.	.	.	.	.	.	.	.	.	.	.	.
.	.	.	16cc\Jk	.	16ee\Jk	.	.	.	.	.	.	.	.	.	.	.
8G\	x	.	8b/L	.	8dd\L	.	.	.	.	.	.	.	.	.	.	.
8G\J	.	.	8g/J	.	8b\J	.	.	.	.	.	.	.	.	.	.	.
=3	=3	=3	=3	=3	=3	=3	=3	=3	=3	=3	=3	=3	=3	=3	=3	=3
8D\	.	.	8f#/L	.	8a\L	.	2ryy	2ryy	.	.	.	.	.	.	2ryy	2ryy
8r	.	.	16f#/L	.	16a\L	.	.	.	.	.	.	.	.	.	.	.
.	.	.	16a/JJ	.	16cc\JJ	.	.	.	.	.	.	.	.	.	.	.
8G\	.	.	8g/L	.	8b\L	.	.	.	.	.	.	.	.	.	.	.
8r	.	.	16g/L	.	16b\L	.	.	.	.	.	.	.	.	.	.	.
.	.	.	16b/JJ	.	16dd\JJ	.	.	.	.	.	.	.	.	.	.	.
=4	=4	=4	=4	=4	=4	=4	=4	=4	=4	=4	=4	=4	=4	=4	=4	=4
.	.	.	.	.	8qqdd/	.	.	.	.	.	.	.	.	.	.	.
8A\L	7	.	8g/L	.	4cc\	.	2ryy	2ryy	.	.	.	.	.	.	2ryy	2ryy
8D\	7	.	8f#/J	.	.	.	.	.	.	.	.	.	.	.	.	.
8G\J	.	.	8g/L	.	8b\L	.	.	.	.	.	.	.	.	.	.	.
8r	.	.	16g/L	.	16b\L	.	.	.	.	.	.	.	.	.	.	.
.	.	.	16b/JJ	.	16dd\JJ	.	.	.	.	.	.	.	.	.	.	.
!	!	!	!LO:LB:g=original	!	!	!	!	!	!	!	!	!	!	!	!	!
=5	=5	=5	=5	=5	=5	=5	=5	=5	=5	=5	=5	=5	=5	=5	=5	=5
8r	.	.	16b/LL	.	16dd\LL	.	2ryy	2ryy	0r	.	.	0r	.	.	2ryy	2ryy
.	.	.	16a/J	.	16cc\J	.	.	.	.	.	.	.	.	.	.	.
!	!	!	!	!	!LO:LB:g=original	!	!	!	!	!	!	!	!	!	!	!
8D\L	.	.	8f#/J	.	8a\J	.	.	.	.	.	.	.	.	.	.	.
8D\	.	.	8r	.	8r	.	.	.	.	.	.	.	.	.	.	.
8D\J	.	.	16f#/LL	.	16a\LL	.	.	.	.	.	.	.	.	.	.	.
.	.	.	16a/JJ	.	16cc\JJ	.	.	.	.	.	.	.	.	.	.	.
!LO:LB:g=original	!	!	!	!	!	!	!	!	!	!	!	!	!	!	!	!
=6	=6	=6	=6	=6	=6	=6	=6	=6	=6	=6	=6	=6	=6	=6	=6	=6
8r	.	.	16g/LL	.	16b\LL	.	2ryy	2ryy	.	.	.	.	.	.	2ryy	2ryy
.	.	.	16a/J	.	16cc\J	.	.	.	.	.	.	.	.	.	.	.
8G\L	.	.	8b/J	.	8dd\J	.	.	.	.	.	.	.	.	.	.	.
8G\	.	.	8r	.	8r	.	.	.	.	.	.	.	.	.	.	.
8G\J	.	.	8b/	.	8dd\	.	.	.	.	.	.	.	.	.	.	.
=7	=7	=7	=7	=7	=7	=7	=7	=7	=7	=7	=7	=7	=7	=7	=7	=7
8r	.	.	16b/LL	.	16dd\LL	.	2ryy	2ryy	.	.	.	.	.	.	2ryy	2ryy
.	.	.	16a/	.	16cc\	.	.	.	.	.	.	.	.	.	.	.
8c\L	6	.	16cc/	.	16ee\	.	.	.	.	.	.	.	.	.	.	.
.	.	.	16b/JJ	.	16dd\JJ	.	.	.	.	.	.	.	.	.	.	.
8c\	.	.	16b/LL	.	16dd\LL	.	.	.	.	.	.	.	.	.	.	.
.	.	.	16a/	.	16cc\	.	.	.	.	.	.	.	.	.	.	.
8c#X\J	5	.	16a/	.	16cc\	.	.	.	.	.	.	.	.	.	.	.
.	.	.	16g/JJ	.	16b\JJ	.	.	.	.	.	.	.	.	.	.	.
=8	=8	=8	=8	=8	=8	=8	=8	=8	=8	=8	=8	=8	=8	=8	=8	=8
8d\L	4	.	8.g/L	.	8.b\L	.	2ryy	2ryy	.	.	.	.	.	.	2ryy	2ryy
16d\L	.	.	.	.	.	.	.	.	.	.	.	.	.	.	.	.
16c\JJ	.	.	32f#/LL	.	32a\LL	.	.	.	.	.	.	.	.	.	.	.
.	.	.	32g/JJJ	.	32b\JJJ	.	.	.	.	.	.	.	.	.	.	.
8d\L	3	.	8f#/	.	8a/	.	.	.	.	.	.	.	.	.	.	.
8D\J	.	.	8r	.	8r	.	.	.	.	.	.	.	.	.	.	.
=9	=9	=9	=9	=9	=9	=9	=9	=9	=9	=9	=9	=9	=9	=9	=9	=9
8r	.	.	8r	.	8ff# 8a 8d\	.	2ryy	2ryy	0r	.	.	0r	.	.	2ryy	2ryy
8D\L	3	.	8a/L	.	4ff#\	.	.	.	.	.	.	.	.	.	.	.
8d\	_	.	8a/	.	.	.	.	.	.	.	.	.	.	.	.	.
8cn\J	.	.	8a/J	.	16ee\LL	.	.	.	.	.	.	.	.	.	.	.
.	x	.	.	.	16ff#\JJ	.	.	.	.	.	.	.	.	.	.	.
!	!	!	!LO:LB:g=original	!	!	!	!	!	!	!	!	!	!	!	!	!
=10	=10	=10	=10	=10	=10	=10	=10	=10	=10	=10	=10	=10	=10	=10	=10	=10
8B\L	6	.	8b/L	.	16gg\LL	.	2ryy	2ryy	.	.	.	.	.	.	2ryy	2ryy
.	.	.	.	.	16dd\J	.	.	.	.	.	.	.	.	.	.	.
8B\	_	.	8b/	.	8dd\J	.	.	.	.	.	.	.	.	.	.	.
!	!	!	!	!	!LO:LB:g=original	!	!	!	!	!	!	!	!	!	!	!
8G\	.	.	8b/	.	16r	.	.	.	.	.	.	.	.	.	.	.
.	x	.	.	.	16dd\LL	.	.	.	.	.	.	.	.	.	.	.
8G\J	.	.	8b/J	.	16bb\	.	.	.	.	.	.	.	.	.	.	.
.	.	.	.	.	16gg\JJ	.	.	.	.	.	.	.	.	.	.	.
=11	=11	=11	=11	=11	=11	=11	=11	=11	=11	=11	=11	=11	=11	=11	=11	=11
*	*	*	*tremolo	*	*	*	*	*	*	*	*	*	*	*	*	*
8D\L	.	.	8a/L	.	16gg\LL	.	2ryy	2ryy	.	.	.	.	.	.	2ryy	2ryy
.	.	.	.	.	16ff#\	.	.	.	.	.	.	.	.	.	.	.
8D\	.	.	8a/	.	16ff#\	.	.	.	.	.	.	.	.	.	.	.
.	.	.	.	.	16gg\JJ	.	.	.	.	.	.	.	.	.	.	.
8F#\	6 5	.	8a/	.	16aa\LL	.	.	.	.	.	.	.	.	.	.	.
.	.	.	.	.	16ff#\	.	.	.	.	.	.	.	.	.	.	.
8F#\J	_ _	.	8a/J	.	16dd\	.	.	.	.	.	.	.	.	.	.	.
.	.	.	.	.	16cc\JJ	.	.	.	.	.	.	.	.	.	.	.
*	*	*	*Xtremolo	*	*	*	*	*	*	*	*	*	*	*	*	*
!LO:LB:g=original	!	!	!	!	!	!	!	!	!	!	!	!	!	!	!	!
=12	=12	=12	=12	=12	=12	=12	=12	=12	=12	=12	=12	=12	=12	=12	=12	=12
*	*	*	*Xtuplet	*	*	*	*	*	*	*	*	*	*	*	*	*
!LO:TX:a:t=P:problem=mixed beam	!	!	!LO:TUP:a:problem=klamra łukowa z kropką zamiast cyfry	!	!LO:TUP:a:problem=klamra łukowa i kropka zamiast cyfry	!	!	!	!	!	!	!	!	!	!	!
8G\L	4	.	24a/LL	.	24cc\LL	.	2ryy	2ryy	.	.	.	.	.	.	2ryy	2ryy
.	.	.	24g/	.	24b\	.	.	.	.	.	.	.	.	.	.	.
.	.	.	24a/J	.	24cc\J	.	.	.	.	.	.	.	.	.	.	.
8GG/	3	.	8g/J	.	8b\J	.	.	.	.	.	.	.	.	.	.	.
8G\J	.	.	8r	.	8r	.	.	.	.	.	.	.	.	.	.	.
!	!	!	!	!LO:DY:a	!	!	!	!	!	!	!	!	!	!	!	!
8r	.	.	8d/	p	8dd\	p	.	.	.	.	.	.	.	.	.	.
=13	=13	=13	=13	=13	=13	=13	=13	=13	=13	=13	=13	=13	=13	=13	=13	=13
!	!	!LO:DY:rj:a	!LO:TX:b:t=|	!	!LO:TX:a:t=|	!	!	!	!	!	!	!	!	!	!	!
8c\L	.	p	16e/LL	.	16ee\LL	.	2ryy	2ryy	0r	.	.	0r	.	.	2ryy	2ryy
!	!	!	!LO:TX:b:t=|	!	!LO:TX:a:t=|	!	!	!	!	!	!	!	!	!	!	!
.	.	.	16e/JJ	.	16ee\JJ	.	.	.	.	.	.	.	.	.	.	.
8A\	6	.	(16f#/LL	.	(16ff#\LL	.	.	.	.	.	.	.	.	.	.	.
.	.	.	32e/L	.	32ee\L	.	.	.	.	.	.	.	.	.	.	.
.	.	.	32f#/JJJ	.	32ff#\JJJ	.	.	.	.	.	.	.	.	.	.	.
8B\J	6	.	16g/LL)	.	16gg\LL)	.	.	.	.	.	.	.	.	.	.	.
!	!	!	!LO:TX:b:t=|	!	!LO:TX:a:t=|	!	!	!	!	!	!	!	!	!	!	!
.	.	.	16g/	.	16gg\	.	.	.	.	.	.	.	.	.	.	.
!	!	!	!LO:TX:b:t=|	!	!LO:TX:a:t=|	!	!	!	!	!	!	!	!	!	!	!
8r	.	.	16d/	.	16dd\	.	.	.	.	.	.	.	.	.	.	.
!	!	!	!LO:TX:b:t=|	!	!LO:TX:a:t=|	!	!	!	!	!	!	!	!	!	!	!
.	.	.	16d/JJ	.	16dd\JJ	.	.	.	.	.	.	.	.	.	.	.
=14	=14	=14	=14	=14	=14	=14	=14	=14	=14	=14	=14	=14	=14	=14	=14	=14
!	!	!	!LO:TX:b:t=|	!	!LO:TX:a:t=|	!	!	!	!	!	!	!	!	!	!	!
8c\L	.	.	16e/LL	.	16ee\LL	.	2ryy	2ryy	.	.	.	.	.	.	2ryy	2ryy
!	!	!	!LO:TX:b:t=|	!	!LO:TX:a:t=|	!	!	!	!	!	!	!	!	!	!	!
.	.	.	16e/JJ	.	16ee\JJ	.	.	.	.	.	.	.	.	.	.	.
8A\	6	.	(16f#/LL	.	(16ff#\LL	.	.	.	.	.	.	.	.	.	.	.
.	.	.	32e/L	.	32ee\L	.	.	.	.	.	.	.	.	.	.	.
.	.	.	32f#/JJJ)	.	32ff#\JJJ)	.	.	.	.	.	.	.	.	.	.	.
!	!	!	!	!	!LO:LB:g=original	!	!	!	!	!	!	!	!	!	!	!
!	!	!	!LO:TX:b:t=|	!	!LO:TX:a:t=|	!	!	!	!	!	!	!	!	!	!	!
8B\J	6	.	16g/LL	.	16gg\LL	.	.	.	.	.	.	.	.	.	.	.
!	!	!	!LO:TX:b:t=|	!	!LO:TX:a:t=|	!	!	!	!	!	!	!	!	!	!	!
.	.	.	16g/	.	16gg\	.	.	.	.	.	.	.	.	.	.	.
!	!	!	!LO:TX:b:t=|	!	!LO:TX:a:t=|	!	!	!	!	!	!	!	!	!	!	!
8r	.	.	16d/	.	16dd\	.	.	.	.	.	.	.	.	.	.	.
!	!	!	!LO:TX:b:t=|	!	!LO:TX:a:t=|	!	!	!	!	!	!	!	!	!	!	!
.	.	.	16d/JJ	.	16dd\JJ	.	.	.	.	.	.	.	.	.	.	.
!	!	!	!LO:LB:g=original	!	!	!	!	!	!	!	!	!	!	!	!	!
=15	=15	=15	=15	=15	=15	=15	=15	=15	=15	=15	=15	=15	=15	=15	=15	=15
!	!	!	!LO:TX:b:t=|	!	!LO:TX:a:t=|	!	!	!	!	!	!	!	!	!	!	!
8c\L	.	.	16e/LL	.	16ee\LL	.	2ryy	2ryy	.	.	.	.	.	.	2ryy	2ryy
!	!	!	!LO:TX:b:t=|	!	!LO:TX:a:t=|	!	!	!	!	!	!	!	!	!	!	!
.	.	.	16e/JJ	.	16ee\JJ	.	.	.	.	.	.	.	.	.	.	.
!	!	!LO:HP:b	!	!	!	!	!	!	!	!	!	!	!	!	!	!
8A\	6	<	(16f#/LL	.	(16ff#\LL	.	.	.	.	.	.	.	.	.	.	.
.	.	.	32e/L	.	32ee\L	.	.	.	.	.	.	.	.	.	.	.
.	.	.	32f#/JJJ	.	32ff#\JJJ	.	.	.	.	.	.	.	.	.	.	.
8B\	6	.	16g/LL)	<	16gg\LL)	<	.	.	.	.	.	.	.	.	.	.
!	!	!	!LO:TX:b:t=|	!	!LO:TX:a:t=|	!	!	!	!	!	!	!	!	!	!	!
.	.	.	16g/JJ	.	16gg\JJ	.	.	.	.	.	.	.	.	.	.	.
8G\J	.	.	(16a/LL	.	(16aa\LL	.	.	.	.	.	.	.	.	.	.	.
.	.	.	32a/L	.	32aa\L	.	.	.	.	.	.	.	.	.	.	.
.	.	.	32b/JJJ	.	32bb\JJJ	.	.	.	.	.	.	.	.	.	.	.
=16	=16	=16	=16	=16	=16	=16	=16	=16	=16	=16	=16	=16	=16	=16	=16	=16
8F#\L	6	.	16a/LL)	.	16aa\LL)	.	2ryy	2ryy	.	.	.	.	.	.	2ryy	2ryy
.	.	.	16d/	.	16dd\	.	.	.	.	.	.	.	.	.	.	.
8D\	.	[	16cc/	.	16ccc\	[	.	.	.	.	.	.	.	.	.	.
.	.	.	16a/JJ	[	16aa\JJ	.	.	.	.	.	.	.	.	.	.	.
!	!	!	!z	!	!	!	!	!	!	!	!	!	!	!	!	!
8d\	3	f	8.aL 8.d/	f	8.ff#t\L	f	.	.	.	.	.	.	.	.	.	.
8c\J	_	.	.	.	.	.	.	.	.	.	.	.	.	.	.	.
.	.	.	32g/LL	.	32ee\LL	.	.	.	.	.	.	.	.	.	.	.
.	.	.	32a/JJJ	.	32ff#\JJJ	.	.	.	.	.	.	.	.	.	.	.
=17	=17	=17	=17	=17	=17	=17	=17	=17	=17	=17	=17	=17	=17	=17	=17	=17
8B\L	6	.	8b/L	.	16gg\LL	.	2ryy	2ryy	1r	.	.	1r	.	.	2ryy	2ryy
.	.	.	.	.	16dd\	.	.	.	.	.	.	.	.	.	.	.
8c\	6	.	16cc/L	.	16ee\	.	.	.	.	.	.	.	.	.	.	.
.	.	.	16a/JJ	.	16cc\JJ	.	.	.	.	.	.	.	.	.	.	.
8d\	4	.	8g/L	.	8b\L	.	.	.	.	.	.	.	.	.	.	.
8D\J	3	.	8f#/J	.	8a\J	.	.	.	.	.	.	.	.	.	.	.
=18	=18	=18	=18	=18	=18	=18	=18	=18	=18	=18	=18	=18	=18	=18	=18	=18
!LO:TX:a:t=P:problem=mixed beam	!	!	!	!	!	!	!	!	!	!	!	!	!	!	!	!
8G\L	.	.	16g/LL	.	8b\L	.	2ryy	2ryy	.	.	.	.	.	.	2ryy	2ryy
.	.	.	16d/	.	.	.	.	.	.	.	.	.	.	.	.	.
8GG/	.	.	16g/	.	16b\L	.	.	.	.	.	.	.	.	.	.	.
.	.	.	16b/JJ	.	16dd\JJ	.	.	.	.	.	.	.	.	.	.	.
8G\J	.	.	8g/	.	8b\	.	.	.	.	.	.	.	.	.	.	.
8r	.	.	8r	.	8r	.	.	.	.	.	.	.	.	.	.	.
!LO:LB:g=original	!	!	!LO:LB:g=original	!	!LO:LB:g=original	!	!	!	!	!	!	!	!	!	!	!
=19	=19	=19	=19	=19	=19	=19	=19	=19	=19	=19	=19	=19	=19	=19	=19	=19
!	!	!	!	!	!	!	!	!	!LO:TX:a:t=Solo.	!	!	!LO:TX:a:t=Solo	!	!	!	!
!	!	!LO:DY:rj:a:t=p&colon;	!	!	!	!LO:DY:a	!	!	!	!	!	!	!	!	!	!
8G\L	.	p	8.g/L	p	8.b\L	p	2ryy	2ryy	8.g\L	In	Te-	8.b\L	In	Te-	2ryy	2ryy
8G\	.	.	.	.	.	.	.	.	.	.	.	.	.	.	.	.
.	.	.	32f#/LL	.	32a\LL	.	.	.	32f#\LL	.	.	32a\LL	.	.	.	.
.	.	.	32g/JJJ	.	32b\JJJ	.	.	.	32g\JJJ	.	.	32b\JJJ	.	.	.	.
8G\	4 2	.	8.a/L	.	8.cc\L	.	.	.	8.a\	te	-cum	8.cc\	te	-cum	.	.
8G\J	_ _	.	.	.	.	.	.	.	.	.	.	.	.	.	.	.
.	.	.	32g/LL	.	32b\LL	.	.	.	32g\LLL	.	prin-	32b\LLL	.	prin-	.	.
.	.	.	32a/JJJ	.	32cc\JJJ	.	.	.	32a\JJJ	.	.	32cc\JJJ	.	.	.	.
=20	=20	=20	=20	=20	=20	=20	=20	=20	=20	=20	=20	=20	=20	=20	=20	=20
8G\L	x 3	.	8.b\L	.	8.dd\L	.	2ryy	2ryy	8.b\	Do-	-ci-	8.b\	Do-	-ci-	2ryy	2ryy
8G\	.	.	.	.	.	.	.	.	.	.	.	.	.	.	.	.
.	.	.	16cc\Jk	.	16ee\Jk	.	.	.	16cc\	-mi-	-pi-	16ee\	-mi-	-pi-	.	.
8G\	.	.	8b/L	.	8dd\L	.	.	.	8b\	-ne	-um	8dd\	-ne	-um	.	.
8G\J	.	.	8g/J	.	8b\J	.	.	.	8g\	spe-	in	8b\	spe-	in	.	.
=21	=21	=21	=21	=21	=21	=21	=21	=21	=21	=21	=21	=21	=21	=21	=21	=21
8D\	.	.	8f#/L	.	8a\L	.	2ryy	2ryy	8f#\L	-ra-	di-	8a\L	-ra-	di-	2ryy	2ryy
8r	.	.	16f#/L	.	16a\L	.	.	.	16f#\L	.	.	16a\L	.	.	.	.
.	.	.	16a/JJ	.	16cc\JJ	.	.	.	16a\JJ	.	.	16cc\JJ	.	.	.	.
!	!	!	!	!	!	!	!	!	!	!	!	!LO:LB:g=original	!	!	!	!
8G\	.	.	8g/L	.	8b\L	.	.	.	8g\	-vi	-e	8b\	-vi	-e	.	.
!	!	!	!	!	!	!	!	!	!LO:LB:g=original	!	!	!	!	!	!	!
8r	.	.	16g/L	.	16b\L	.	.	.	16g\LL	et	Vir-	16b\LL	et	Vir-	.	.
.	.	.	16b/JJ	.	16dd\JJ	.	.	.	16b\JJ	.	.	16dd\JJ	.	.	.	.
=22	=22	=22	=22	=22	=22	=22	=22	=22	=22	=22	=22	=22	=22	=22	=22	=22
.	.	.	.	.	8qqdd/	.	.	.	.	.	.	.	.	.	.	.
8A\L	7	.	8g/L	.	4cc\	.	2ryy	2ryy	8a\L	non	-tu-	(4cc\	non	-tu-	2ryy	2ryy
8D\	7	.	8f#/J	.	.	.	.	.	8f#\J	.	-tis	.	.	.	.	.
8G\J	.	.	8g/L	.	8b\L	.	.	.	8g\	.	in	8b\)	.	-tis	.	.
8r	.	.	16g/L	.	16b\L	.	.	.	16g\LL	con-	.	16b\LL	con-	in	.	.
.	.	.	16b/JJ	.	16dd\JJ	.	.	.	16b\JJ	.	di-	16dd\JJ	.	.	.	.
=23	=23	=23	=23	=23	=23	=23	=23	=23	=23	=23	=23	=23	=23	=23	=23	=23
8r	.	.	16b/LL	.	16dd\LL	.	2ryy	2ryy	16b\LL	-fun-	.	16dd\LL	-fun-	di-	2ryy	2ryy
.	.	.	16a/J	.	16cc\J	.	.	.	16a\JJ	.	-e	16cc\JJ	.	.	.	.
8D\L	.	.	8f#/J	.	8a\J	.	.	.	8f#\	-dar	.	8a\	-dar	-e	.	.
8D\	.	.	8r	.	8r	.	.	.	8r	.	.	8r	.	.	.	.
*	*	*	*	*	*	*	*	*	*	*	*ij	*	*	*ij	*	*
8D\J	.	.	16f#/LL	.	16a\LL	.	.	.	16f#\LL	in	in	16a\LL	in	in	.	.
.	.	.	16a/JJ	.	16cc\JJ	.	.	.	16a\JJ	ae-	.	16cc\JJ	ae-	.	.	.
!	!	!	!LO:LB:g=original	!	!LO:LB:g=original	!	!	!	!	!	!	!	!	!	!	!
=24	=24	=24	=24	=24	=24	=24	=24	=24	=24	=24	=24	=24	=24	=24	=24	=24
8r	.	.	16g/LL	.	16b\LL	.	2ryy	2ryy	16f#\LL	-ter-	di-	16b\LL	-ter-	di-	2ryy	2ryy
.	.	.	16a/J	.	16cc\J	.	.	.	16a\JJ	.	.	16cc\JJ	.	.	.	.
8G\L	.	.	8b/J	.	8dd\J	.	.	.	8b\	-num	-e	8dd\	-num	-e	.	.
*	*	*	*	*	*	*	*	*	*	*	*Xij	*	*	*Xij	*	*
8G\	.	.	8r	.	8r	.	.	.	8r	.	.	8r	.	.	.	.
8G\J	.	.	8b/	.	8dd\	.	.	.	8b\	ae-	Vir-	8dd\	ae-	Vir-	.	.
=25	=25	=25	=25	=25	=25	=25	=25	=25	=25	=25	=25	=25	=25	=25	=25	=25
8c\L	6	.	16b/LL	.	16dd\LL	.	2ryy	2ryy	16b\LL	-ter-	-tu-	16dd\LL	-ter-	-tu-	2ryy	2ryy
.	_	.	16a/	.	16cc\	.	.	.	16a\	.	.	16cc\	.	.	.	.
8c\	.	.	16cc/	.	16ee\	.	.	.	16cc\	.	.	16ee\	.	.	.	.
.	.	.	16b/JJ	.	16dd\JJ	.	.	.	16b\JJ	.	.	16dd\JJ	.	.	.	.
!	!	!	!	!	!	!	!	!	!	!	!	!LO:LB:g=original	!	!	!	!
8c\	x	.	16b/LL	.	16dd\LL	.	.	.	16b\LL	.	.	16dd\LL	.	.	.	.
.	.	.	16a/	.	16cc\	.	.	.	16a\JJ	.	.	16cc\JJ	.	.	.	.
!	!	!	!	!	!	!	!	!	!LO:LB:g=original	!	!	!	!	!	!	!
8c#X\J	5	.	16a/	.	16cc\	.	.	.	16a\LL	.	-tis	16cc\LL	.	-tis	.	.
.	.	.	16g/JJ	.	16b\JJ	.	.	.	16g\JJ	.	.	16b\JJ	.	.	.	.
!LO:LB:g=original	!	!	!	!	!	!	!	!	!	!	!	!	!	!	!	!
=26	=26	=26	=26	=26	=26	=26	=26	=26	=26	=26	=26	=26	=26	=26	=26	=26
8d\L	4	.	8.g/L	.	8.b\L	.	2ryy	2ryy	8.g\L	.	tuae	8.b\L	.	tuae	2ryy	2ryy
16d\L	_	.	.	.	.	.	.	.	.	.	.	.	.	.	.	.
16c\JJ	.	.	32f#/LL	.	32a\LL	.	.	.	32f#\LL	.	.	32a\LL	.	.	.	.
.	.	.	32g/JJJ	.	32b\JJJ	.	.	.	32g\JJJ	.	.	32b\JJJ	.	.	.	.
16d\LL	3	.	8f#/	.	8a/	.	.	.	8f#\	-num	.	8a\	-num	.	.	.
16A\	.	.	.	.	.	.	.	.	.	.	.	.	.	.	.	.
16F#\	.	.	8r	.	8r	.	.	.	8r	.	.	8r	.	.	.	.
(16A\JJ	.	.	.	.	.	.	.	.	.	.	.	.	.	.	.	.
=27	=27	=27	=27	=27	=27	=27	=27	=27	=27	=27	=27	=27	=27	=27	=27	=27
8D\L)	.	.	8f#/L	.	8a/L	.	2ryy	2ryy	0r	.	.	8.a\L	in	in	2ryy	2ryy
8D\	.	.	8f#/	.	8a/	.	.	.	.	.	.	.	.	.	.	.
.	.	.	.	.	.	.	.	.	.	.	.	32b\LL	.	.	.	.
.	.	.	.	.	.	.	.	.	.	.	.	32cc#X\JJJ	.	.	.	.
8F#\	6	.	8d/	.	8a/	.	.	.	.	.	.	16dd\LL	jus-	.	.	.
.	.	.	.	.	.	.	.	.	.	.	.	16ee\JJ	.	.	.	.
8F#\J	.	.	8d/J	.	8a/J	.	.	.	.	.	.	16ff#\LL	.	Splen-	.	.
.	.	.	.	.	.	.	.	.	.	.	.	16dd\JJ	.	.	.	.
=28	=28	=28	=28	=28	=28	=28	=28	=28	=28	=28	=28	=28	=28	=28	=28	=28
*2\right	*	*	*	*	*2\right	*	*	*	*	*	*	*	*	*	*	*
*tremolo	*	*	*	*	*tremolo	*	*	*	*	*	*	*	*	*	*	*
8G\L	.	.	8d/L	.	8b\L	.	2ryy	2ryy	.	.	.	16cc\LL	-ti-	-do-	2ryy	2ryy
.	.	.	.	.	.	.	.	.	.	.	.	16b\JJ	.	.	.	.
8G\	.	.	8d/	.	8b\	.	.	.	.	.	.	16a#X\LL	-ti-	-ri-	.	.
.	.	.	.	.	.	.	.	.	.	.	.	16b\JJ	.	.	.	.
8G\	.	.	8d/	.	8b\	.	.	.	.	.	.	8b\	-a	-bus	.	.
8G\J	.	.	8d/J	.	8b\J	.	.	.	.	.	.	8r	.	.	.	.
*Xtremolo	*	*	*	*	*	*	*	*	*	*	*	*	*	*	*	*
!	!	!	!LO:LB:g=original	!	!	!	!	!	!	!	!	!	!	!	!	!
=29	=29	=29	=29	=29	=29	=29	=29	=29	=29	=29	=29	=29	=29	=29	=29	=29
8G\L	.	.	8d/L	.	8b\L	.	2ryy	2ryy	.	.	.	8.b\L	tu-	Sanc-	2ryy	2ryy
8G\	.	.	8d/	.	8b\	.	.	.	.	.	.	.	.	.	.	.
.	.	.	.	.	.	.	.	.	.	.	.	32cc\LL	.	.	.	.
.	.	.	.	.	.	.	.	.	.	.	.	32dd\JJJ	.	.	.	.
!	!	!	!	!	!	!	!	!	!	!	!	!LO:LB:g=original	!	!	!	!
8G\	6	.	8e/	.	8b\	.	.	.	.	.	.	16ee\LL	.	.	.	.
.	.	.	.	.	.	.	.	.	.	.	.	16ff#\	.	.	.	.
8G#X\J	_	.	8e/J	.	8b\J	.	.	.	.	.	.	16gg\	.	.	.	.
.	.	.	.	.	.	.	.	.	.	.	.	16ee\JJ	.	.	.	.
*	*	*	*	*	*Xtremolo	*	*	*	*	*	*	*	*	*	*	*
!	!	!	!	!	!LO:LB:g=original	!	!	!	!	!	!	!	!	!	!	!
=30	=30	=30	=30	=30	=30	=30	=30	=30	=30	=30	=30	=30	=30	=30	=30	=30
8A\L	4	.	8.d/L	.	4f#/	.	2ryy	2ryy	.	.	.	8.dd\L	.	-to-	2ryy	2ryy
16A\L	.	.	.	.	.	.	.	.	.	.	.	.	.	.	.	.
16G\JJ	.	.	32c#X/LL	.	.	.	.	.	.	.	.	32cc#X\LL	.	.	.	.
.	.	.	32d/JJJ	.	.	.	.	.	.	.	.	32dd\JJJ	.	.	.	.
!LO:TX:a:t=P:problem=mixed beam	!	!	!	!	!	!	!	!	!	!	!	!	!	!	!	!
8A\L	#	.	8c#/	.	8e/	.	.	.	.	.	.	8cc#\	-a	-rum	.	.
8AA/J	.	.	8r	.	8r	.	.	.	.	.	.	8r	.	.	.	.
=31	=31	=31	=31	=31	=31	=31	=31	=31	=31	=31	=31	=31	=31	=31	=31	=31
8r	.	.	8r	.	8r	.	2ryy	2ryy	8.e\L	li-	Ex	8.cc#X\L	li-	Ex	2ryy	2ryy
8A\L	#	.	8c#X/L	.	8e/L	.	.	.	.	.	.	.	.	.	.	.
.	.	.	.	.	.	.	.	.	32f#\LL	.	.	32dd\LL	.	.	.	.
.	.	.	.	.	.	.	.	.	32g\JJJ	.	.	32ee\JJJ	.	.	.	.
8A\	_	.	8c#/	.	8e/	.	.	.	16a\LL	.	u-	16ff#\LL	.	u-	.	.
.	.	.	.	.	.	.	.	.	16g\	.	.	16ee\	.	.	.	.
8A\J	x	.	8c#/J	.	8e/J	.	.	.	16f#\	.	.	16dd\	.	.	.	.
.	.	.	.	.	.	.	.	.	16e\JJ	.	.	16cc#\JJ	.	.	.	.
=32	=32	=32	=32	=32	=32	=32	=32	=32	=32	=32	=32	=32	=32	=32	=32	=32
8r	.	.	8r	.	8r	.	2ryy	2ryy	8.f#\	-be-	.	8.dd\	-be-	.	2ryy	2ryy
8D\L	.	.	8A/L	.	8f#/L	.	.	.	.	.	.	.	.	.	.	.
.	.	.	.	.	.	.	.	.	16g\	-ra-	-te-	16ee\	-ra-	-te-	.	.
8D\	.	.	8A/	.	8f#/	.	.	.	8a\	-me	-ro	8ff#\	-me	-ro	.	.
8D\J	.	.	8A/J	.	8f#/J	.	.	.	8r	.	.	8r	.	.	.	.
!LO:LB:g=original	!	!	!	!	!	!	!	!	!	!	!	!	!	!	!	!
=33	=33	=33	=33	=33	=33	=33	=33	=33	=33	=33	=33	=33	=33	=33	=33	=33
8r	.	.	8r	.	8r	.	2ryy	2ryy	16a\LL	Es-	Ex-	16ff#\LL	Es-	Ex-	2ryy	2ryy
.	.	.	.	.	.	.	.	.	16f#\	.	.	16dd\	.	.	.	.
8D\L	.	.	8A/L	.	8f#/L	.	.	.	16g\	.	.	16ee\	.	.	.	.
.	.	.	.	.	.	.	.	.	16a\JJ	.	.	16ff#\JJ	.	.	.	.
!	!	!	!	!	!	!	!	!	!LO:LB:g=original	!	!	!LO:LB:g=original	!	!	!	!
8D\	.	.	8A/	.	8f#/	.	.	.	16b\LL	.	-u-	16gg\LL	.	-u-	.	.
.	.	.	.	.	.	.	.	.	16a\	.	.	16ff#\	.	.	.	.
8D\J	.	.	8A/J	.	8f#/J	.	.	.	16g\	-to	.	16ee\	-to	.	.	.
.	.	.	.	.	.	.	.	.	16f#\JJ	.	.	16dd\JJ	.	.	.	.
=34	=34	=34	=34	=34	=34	=34	=34	=34	=34	=34	=34	=34	=34	=34	=34	=34
8r	.	.	8r	.	8r	.	2ryy	2ryy	8.e\	mi-	.	8.cc#X\	mi-	.	2ryy	2ryy
8A\L	#	.	8c#X/L	.	8e/L	.	.	.	.	.	.	.	.	.	.	.
.	.	.	.	.	.	.	.	.	16f#\	.	-te-	16dd\	.	-te-	.	.
8A\	_	.	8c#/	.	8e/	.	.	.	8g\	-hi	-ro	8ee\	-hi	-ro	.	.
8A\J	.	.	8c#/J	.	8e/J	.	.	.	8r	.	.	8r	.	.	.	.
!	!	!	!LO:LB:g=original	!	!	!	!	!	!	!	!	!	!	!	!	!
=35	=35	=35	=35	=35	=35	=35	=35	=35	=35	=35	=35	=35	=35	=35	=35	=35
8r	.	.	8r	.	8r	.	2ryy	2ryy	16g\LL	in	an-	16ee\LL	in	an-	2ryy	2ryy
.	.	.	.	.	.	.	.	.	16e\	.	.	16cc#X\	.	.	.	.
8A\L	.	.	8c#X/L	.	8e/L	.	.	.	16f#\	.	.	16dd\	.	.	.	.
.	.	.	.	.	.	.	.	.	16g\JJ	.	.	16ee\JJ	.	.	.	.
8A\	_	.	8c#/	.	8e/	.	.	.	16a\LL	De-	-te	16ff#\LL	De-	-te	.	.
.	.	.	.	.	.	.	.	.	16g\JJ	.	.	16ee\JJ	.	.	.	.
8A\J	.	.	8c#/J	.	8e/J	.	.	.	16f#\LL	-um	lu-	16dd\LL	-um	lu-	.	.
.	x	.	.	.	.	.	.	.	16e\JJ	.	.	16cc#\JJ	.	.	.	.
=36	=36	=36	=36	=36	=36	=36	=36	=36	=36	=36	=36	=36	=36	=36	=36	=36
8r	.	.	8r	.	8r	.	2ryy	2ryy	8.f#\	pro-	-ci-	8.dd\	pro-	-ci-	2ryy	2ryy
8D\L	.	.	8d/L	.	8f#/L	.	.	.	.	.	.	.	.	.	.	.
.	.	.	.	.	.	.	.	.	16g\	-te-	-fe-	16ee\	-te-	-fe-	.	.
8D\	.	.	8d/	.	8f#/	.	.	.	8a\	-cto-	-rum	8ff#\	-cto-	-rum	.	.
8D\J	.	.	8f#/J	.	8a/J	.	.	.	8f#\	-rem	ex	8a\	-rem	ex	.	.
!	!	!	!	!	!LO:LB:g=original	!	!	!	!	!	!	!LO:LB:g=original	!	!	!	!
=37	=37	=37	=37	=37	=37	=37	=37	=37	=37	=37	=37	=37	=37	=37	=37	=37
8D\L	6 4	.	16f#/LL	.	8b\	.	2ryy	2ryy	16f#\LL	in	u-	16a\LL	in	u-	2ryy	2ryy
.	.	.	16g/JJ	.	.	.	.	.	16g\JJ	.	.	16b\JJ	.	.	.	.
8D\	_ _	.	4g/	.	4b\	.	.	.	4g\	De-	-te-	4b\	De-	-te-	.	.
8D\	.	.	.	.	.	.	.	.	.	.	.	.	.	.	.	.
!	!	!	!	!	!	!	!	!	!LO:LB:g=original	!	!	!	!	!	!	!
8D\J	7# 2	.	8e/	.	8cc#X\	.	.	.	8e\	-um	-ro	8cc#X\	-um	-ro	.	.
=38	=38	=38	=38	=38	=38	=38	=38	=38	=38	=38	=38	=38	=38	=38	=38	=38
!	!	!	!	!	!	!	!	!	!	!	!	!LO:SIC:s:v==16cc#	!	!	!	!
8D\L	3	.	16e/LL	.	16cc\LL	.	2ryy	2ryy	16e\LL	in	an-	16cc\LL	in	an-	2ryy	2ryy
.	.	.	16f#/JJ	.	16dd\JJ	.	.	.	16f#\JJ	.	.	16dd\JJ	.	.	.	.
8D\	_	.	4f#/	.	4dd\	.	.	.	4f#\	De-	-te	4dd\	De-	-te	.	.
8D\	x	.	.	.	.	.	.	.	.	.	.	.	.	.	.	.
8D\J	7n 5	.	8a/	.	8ccn\	.	.	.	8a\	-um	ex	8ccn\	-um	ex	.	.
=39	=39	=39	=39	=39	=39	=39	=39	=39	=39	=39	=39	=39	=39	=39	=39	=39
8D\L	6 4	.	16a/LL	.	16cc\LL	.	2ryy	2ryy	16a\LL	pro-	u-	16cc\LL	pro-	u-	2ryy	2ryy
.	.	.	16g/JJ	.	16b\JJ	.	.	.	16g\JJ	.	.	16b\JJ	.	.	.	.
8D\	_ _	.	4g/	.	4b\	.	.	.	4g\	.	-te-	4b\	.	-te-	.	.
8D\	.	.	.	.	.	.	.	.	.	.	.	.	.	.	.	.
8D\J	7# 2	.	8e/	.	8cc#X\	.	.	.	8d\	-te-	-ro	8cc#X\	-te-	-ro	.	.
!LO:LB:g=original	!	!	!	!	!	!	!	!	!	!	!	!	!	!	!	!
=40	=40	=40	=40	=40	=40	=40	=40	=40	=40	=40	=40	=40	=40	=40	=40	=40
!	!	!	!	!	!	!	!	!	!	!	!	!LO:SIC:s:v==16cc#	!	!	!	!
8D\L	3	.	16e/LL	.	16cc\LL	.	2ryy	2ryy	16e\LL	-cto-	an-	16cc\LL	-cto-	an-	2ryy	2ryy
.	_	.	16f#/JJ	.	16dd\JJ	.	.	.	16f#\JJ	.	.	16dd\JJ	.	.	.	.
8D\	.	.	4f#/	.	4dd\	.	.	.	4f#\	-rem	-te	4dd\	-rem	-te	.	.
8D\	x	.	.	.	.	.	.	.	.	.	.	.	.	.	.	.
8D\J	.	.	8a/	.	8ff#\	.	.	.	8a\	pro-	an-	8ff#\	pro-	an-	.	.
!	!	!	!LO:LB:g=original	!	!	!	!	!	!	!	!	!	!	!	!	!
=41	=41	=41	=41	=41	=41	=41	=41	=41	=41	=41	=41	=41	=41	=41	=41	=41
8G\L	6	.	16a/LL	.	16ff#\LL	.	2ryy	2ryy	16a\LL	.	.	16ff#\LL	.	.	2ryy	2ryy
.	.	.	16g/	.	16ee\	.	.	.	16g\	.	.	16ee\	.	.	.	.
8G\	_	.	16b/	.	16gg\	.	.	.	16b\	.	.	16gg\	.	.	.	.
.	.	.	16a/JJ	.	16ff#\JJ	.	.	.	16a\JJ	.	.	16ff#\JJ	.	.	.	.
!	!	!	!	!	!	!	!	!	!	!	!	!LO:LB:g=original	!	!	!	!
8G\	.	.	16a/LL	.	16ff#\LL	.	.	.	16a\LL	-tec-	-te	16ff#\LL	-tec-	-te	.	.
.	.	.	16g/	.	16ee\	.	.	.	16g\JJ	.	.	16ee\JJ	.	.	.	.
8G#X\J	5	.	16g/	.	16ee\	.	.	.	16g\LL	.	lu-	16ee\LL	.	lu-	.	.
.	.	.	16f#/JJ	.	16dd\JJ	.	.	.	16f#\JJ	.	.	16dd\JJ	.	.	.	.
!	!	!	!	!	!LO:LB:g=original	!	!	!	!LO:LB:g=original	!	!	!	!	!	!	!
=42	=42	=42	=42	=42	=42	=42	=42	=42	=42	=42	=42	=42	=42	=42	=42	=42
8A\L	#	.	8.e/L	.	8.cc#X\L	.	2ryy	2ryy	8.e\	-to-	-ci-	8.cc#X\	-to-	-ci-	2ryy	2ryy
8Gn\	_	.	.	.	.	.	.	.	.	.	.	.	.	.	.	.
.	.	.	32d/LL	.	32b\LL	.	.	.	32d\LLL	.	-fe-	32b\LLL	.	-fe-	.	.
.	.	.	32e/JJJ	.	32cc#\JJJ	.	.	.	32e\JJJ	.	.	32cc#\JJJ	.	.	.	.
8F#\	6	.	8f#/L	.	8dd\L	.	.	.	8f#\	-rem	-rum	8dd\	-rem	-rum	.	.
8D\J	.	.	16f#/L	.	16dd\L	.	.	.	16f#\LL	in	ge-	16dd\LL	in	ge-	.	.
.	.	.	16a/JJ	.	16ff#\JJ	.	.	.	16a\JJ	.	.	16ff#\JJ	.	.	.	.
=43	=43	=43	=43	=43	=43	=43	=43	=43	=43	=43	=43	=43	=43	=43	=43	=43
!LO:TX:a:t=P:problem=mixed beam	!	!	!	!	!	!	!	!	!	!	!	!	!	!	!	!
8G\L	6	.	16g/LL	.	16ee\LL	.	2ryy	2ryy	16g\LL	do-	.	16ee\LL	do-	.	2ryy	2ryy
.	_	.	16b/	.	16gg\	.	.	.	16b\	.	.	16gg\	.	.	.	.
8G\	.	.	16a/	.	16ff#\	.	.	.	16a\	-mum	.	16ff#\	-mum	.	.	.
.	.	.	16g/JJ	.	16ee\JJ	.	.	.	16g\JJ	.	.	16ee\JJ	.	.	.	.
8A\	4	.	16g/LL	.	16ee\LL	.	.	.	16g\LL	re-	-nu-	16ee\LL	re-	-nu-	.	.
.	.	.	16f#/	.	16dd\	.	.	.	16f#\JJ	-fu-	.	16dd\JJ	-fu-	.	.	.
8AA/J	#	.	16f#/	.	16dd\	.	.	.	16f#\LL	-gi-	-i-	16dd\LL	-gi-	-i-	.	.
.	.	.	16e/JJ	.	16cc#X\JJ	.	.	.	16e\JJ	.	.	16cc#X\JJ	.	.	.	.
=44	=44	=44	=44	=44	=44	=44	=44	=44	=44	=44	=44	=44	=44	=44	=44	=44
!	!	!LO:DY:rj:a:t=f&colon;	!	!LO:DY:a	!	!LO:DY:rj:a:t=f&colon;	!	!	!	!	!	!	!	!	!	!
8D\L	.	f	8f#/L	f	16dd\LL	f	2ryy	2ryy	4f#\	-i	-te	4dd\	-i	-te	2ryy	2ryy
.	.	.	.	.	16aa\	.	.	.	.	.	.	.	.	.	.	.
8D\	.	.	8f#/	.	16gg\	.	.	.	.	.	.	.	.	.	.	.
.	.	.	.	.	16ff#\JJ	.	.	.	.	.	.	.	.	.	.	.
8F#\	6	.	8a/	.	16ee\LL	.	.	.	4r	.	.	4r	.	.	.	.
.	.	.	.	.	16dd\	.	.	.	.	.	.	.	.	.	.	.
8F#\J	.	.	8a/J	.	16cc#X\	.	.	.	.	.	.	.	.	.	.	.
.	.	.	.	.	16dd\JJ	.	.	.	.	.	.	.	.	.	.	.
=45	=45	=45	=45	=45	=45	=45	=45	=45	=45	=45	=45	=45	=45	=45	=45	=45
8G\L	6	.	8b/L	.	16ee\LL	.	2ryy	2ryy	0r	.	.	0r	.	.	2ryy	2ryy
.	.	.	.	.	16ff#\	.	.	.	.	.	.	.	.	.	.	.
8G\	.	.	8b/	.	16gg\	.	.	.	.	.	.	.	.	.	.	.
.	.	.	.	.	16ee\JJ	.	.	.	.	.	.	.	.	.	.	.
8A\	#	.	8e/	.	16dd\LL	.	.	.	.	.	.	.	.	.	.	.
.	.	.	.	.	16cc#X\	.	.	.	.	.	.	.	.	.	.	.
8A\J	_	.	8e/J	.	16b\	.	.	.	.	.	.	.	.	.	.	.
.	.	.	.	.	16cc#\JJ	.	.	.	.	.	.	.	.	.	.	.
!	!	!	!LO:LB:g=original	!	!LO:LB:g=original	!	!	!	!	!	!	!	!	!	!	!
=46	=46	=46	=46	=46	=46	=46	=46	=46	=46	=46	=46	=46	=46	=46	=46	=46
8B\L	3	.	8f#/L	.	16dd\LL	.	2ryy	2ryy	.	.	.	.	.	.	2ryy	2ryy
.	_	.	.	.	16ee\	.	.	.	.	.	.	.	.	.	.	.
8A\	.	.	8f#/	.	16ff#\	.	.	.	.	.	.	.	.	.	.	.
.	.	.	.	.	16dd\JJ	.	.	.	.	.	.	.	.	.	.	.
8G\	6	.	8b/	.	16ee\LL	.	.	.	.	.	.	.	.	.	.	.
.	_	.	.	.	16gg\	.	.	.	.	.	.	.	.	.	.	.
8G#X\J	.	.	8b/J	.	16b\	.	.	.	.	.	.	.	.	.	.	.
.	x	.	.	.	16ee\JJ	.	.	.	.	.	.	.	.	.	.	.
!LO:LB:g=original	!	!	!	!	!	!	!	!	!	!	!	!	!	!	!	!
=47	=47	=47	=47	=47	=47	=47	=47	=47	=47	=47	=47	=47	=47	=47	=47	=47
8A\L	#	.	8e/L	.	8.cc#X\L	.	2ryy	2ryy	.	.	.	.	.	.	2ryy	2ryy
8Gn\	_	.	8e/	.	.	.	.	.	.	.	.	.	.	.	.	.
.	.	.	.	.	32b\LL	.	.	.	.	.	.	.	.	.	.	.
.	.	.	.	.	32cc#\JJJ	.	.	.	.	.	.	.	.	.	.	.
8F#\J	6	.	8f#/	.	8cc#\L	.	.	.	.	.	.	.	.	.	.	.
!	!	!	!	!	!	!LO:DY:a	!	!	!	!	!	!	!	!	!	!
8r	.	.	8A/J	.	8a\J	p	.	.	.	.	.	.	.	.	.	.
=48	=48	=48	=48	=48	=48	=48	=48	=48	=48	=48	=48	=48	=48	=48	=48	=48
!	!	!LO:DY:rj:a:t=p&colon;	!	!LO:DY:rj:a:t=pio&colon;	!LO:TX:a:t=|	!	!	!	!	!	!	!	!	!	!	!
8G\L	.	p	16B/LL	p	16b\LL	.	2ryy	2ryy	.	.	.	.	.	.	2ryy	2ryy
!	!	!	!	!	!LO:TX:a:t=|	!	!	!	!	!	!	!	!	!	!	!
.	.	.	16B/JJ	.	16b\JJ	.	.	.	.	.	.	.	.	.	.	.
8E\	6\	.	(16c#X/LL	.	(16cc#X\LL	.	.	.	.	.	.	.	.	.	.	.
.	.	.	32B/L	.	32b\L	.	.	.	.	.	.	.	.	.	.	.
.	.	.	32c#/JJJ	.	32cc#\JJJ	.	.	.	.	.	.	.	.	.	.	.
8F#\J	6	.	16d/LL)	.	16dd\LL)	.	.	.	.	.	.	.	.	.	.	.
!	!	!	!LO:TX:a:t=|	!	!LO:TX:a:t=|	!	!	!	!	!	!	!	!	!	!	!
.	.	.	16d/	.	16dd\	.	.	.	.	.	.	.	.	.	.	.
!	!	!	!LO:TX:a:t=|	!	!LO:TX:a:t=|	!	!	!	!	!	!	!	!	!	!	!
8r	.	.	16A/	.	16a\	.	.	.	.	.	.	.	.	.	.	.
!	!	!	!LO:TX:a:t=|	!	!LO:TX:a:t=|	!	!	!	!	!	!	!	!	!	!	!
.	.	.	16A/JJ	.	16a\JJ	.	.	.	.	.	.	.	.	.	.	.
=49	=49	=49	=49	=49	=49	=49	=49	=49	=49	=49	=49	=49	=49	=49	=49	=49
!	!	!	!LO:TX:a:t=|	!	!LO:TX:a:t=|	!	!	!	!	!	!	!	!	!	!	!
8G\L	.	.	16B/LL	.	16b\LL	.	2ryy	2ryy	0r	.	.	0r	.	.	2ryy	2ryy
!	!	!	!LO:TX:a:t=|	!	!LO:TX:a:t=|	!	!	!	!	!	!	!	!	!	!	!
.	.	.	16B/JJ	.	16b\JJ	.	.	.	.	.	.	.	.	.	.	.
8E\	6\	.	(16c#X/LL	.	(16cc#X\LL	.	.	.	.	.	.	.	.	.	.	.
.	.	.	32B/L	.	32b\L	.	.	.	.	.	.	.	.	.	.	.
.	.	.	32c#/JJJ	.	32cc#\JJJ	.	.	.	.	.	.	.	.	.	.	.
8F#\J	6	.	16d/LL)	.	16dd\LL)	.	.	.	.	.	.	.	.	.	.	.
!	!	!	!LO:TX:a:t=|	!	!LO:TX:a:t=|	!	!	!	!	!	!	!	!	!	!	!
.	.	.	16d/	.	16dd\	.	.	.	.	.	.	.	.	.	.	.
!	!	!	!LO:TX:a:t=|	!	!LO:TX:a:t=|	!	!	!	!	!	!	!	!	!	!	!
8r	.	.	16A/	.	16a\	.	.	.	.	.	.	.	.	.	.	.
!	!	!	!LO:TX:a:t=|	!	!LO:TX:a:t=|	!	!	!	!	!	!	!	!	!	!	!
.	.	.	16A/JJ	.	16a\JJ	.	.	.	.	.	.	.	.	.	.	.
!	!	!	!	!	!LO:LB:g=original	!	!	!	!	!	!	!	!	!	!	!
=50	=50	=50	=50	=50	=50	=50	=50	=50	=50	=50	=50	=50	=50	=50	=50	=50
!	!	!	!LO:TX:a:t=|	!	!LO:TX:a:t=|	!	!	!	!	!	!	!	!	!	!	!
8G\L	.	.	16B/LL	.	16b\LL	.	2ryy	2ryy	.	.	.	.	.	.	2ryy	2ryy
!	!	!	!LO:TX:a:t=|	!	!LO:TX:a:t=|	!	!	!	!	!	!	!	!	!	!	!
.	.	.	16B/JJ	.	16b\JJ	.	.	.	.	.	.	.	.	.	.	.
8E\	6\	<	(16c#X/LL	.	(16cc#X\LL	.	.	.	.	.	.	.	.	.	.	.
.	.	.	32B/L	.	32b\L	<	.	.	.	.	.	.	.	.	.	.
.	.	.	32c#/JJJ)	.	32cc#\JJJ	.	.	.	.	.	.	.	.	.	.	.
!	!	!	!LO:LB:g=original	!	!	!	!	!	!	!	!	!	!	!	!	!
!	!	!	!LO:TX:a:t=|	!	!	!	!	!	!	!	!	!	!	!	!	!
8E\	6	.	16d/LL	<	16dd\LL)	.	.	.	.	.	.	.	.	.	.	.
!	!	!	!LO:TX:a:t=|	!	!LO:TX:a:t=|	!	!	!	!	!	!	!	!	!	!	!
.	.	.	16d/JJ	.	16dd\JJ	.	.	.	.	.	.	.	.	.	.	.
8D\J	.	.	(16f#/LL	.	(16ff#\LL	.	.	.	.	.	.	.	.	.	.	.
.	.	.	32e/L	.	32ee\L	.	.	.	.	.	.	.	.	.	.	.
.	.	.	32f#/JJJ)	.	32ff#\JJJ)	.	.	.	.	.	.	.	.	.	.	.
=51	=51	=51	=51	=51	=51	=51	=51	=51	=51	=51	=51	=51	=51	=51	=51	=51
!LO:TX:a:t=P:problem=mixed beam	!	!	!	!	!	!	!	!	!	!	!	!	!	!	!	!
8C#X/L	6 5	.	16e/LL	.	16ee\LL	.	2ryy	2ryy	.	.	.	.	.	.	2ryy	2ryy
.	.	.	16A/	[	16a\	.	.	.	.	.	.	.	.	.	.	.
8AA/	.	[	16g/	.	16gg\	.	.	.	.	.	.	.	.	.	.	.
.	.	.	16e/JJ	.	16ee\JJ	.	.	.	.	.	.	.	.	.	.	.
8A\	#	f	8.e/L	f	8.cc#X\L	[ f	.	.	.	.	.	.	.	.	.	.
8G\J	_	.	.	.	.	.	.	.	.	.	.	.	.	.	.	.
.	.	.	32d/LL	.	32b\LL	.	.	.	.	.	.	.	.	.	.	.
.	x	.	32e/JJJ	.	32cc#\JJJ	.	.	.	.	.	.	.	.	.	.	.
=52	=52	=52	=52	=52	=52	=52	=52	=52	=52	=52	=52	=52	=52	=52	=52	=52
!LO:TX:a:t=P:problem=mixed beam	!	!	!	!	!	!	!	!	!	!	!	!	!	!	!	!
8F#\L	6	.	16f#/LL	.	16dd\LL	.	2ryy	2ryy	.	.	.	.	.	.	2ryy	2ryy
.	.	.	16a/	.	16ff#\	.	.	.	.	.	.	.	.	.	.	.
8G\	6	.	16b/	.	16gg\	.	.	.	.	.	.	.	.	.	.	.
.	.	.	16g/JJ	.	16ee\JJ	.	.	.	.	.	.	.	.	.	.	.
8A\	4	.	8f#/L	.	8dd\L	.	.	.	.	.	.	.	.	.	.	.
8AA/J	#	.	8e/J	.	8cc#X\J	.	.	.	.	.	.	.	.	.	.	.
=53	=53	=53	=53	=53	=53	=53	=53	=53	=53	=53	=53	=53	=53	=53	=53	=53
8D\L	.	.	8f#/L	.	8dd\L	.	2ryy	2ryy	2r	.	.	2r	.	.	2ryy	2ryy
8d\	.	.	16f#/L	.	16dd\L	.	.	.	.	.	.	.	.	.	.	.
.	.	.	16a/JJ	.	16ff#\JJ	.	.	.	.	.	.	.	.	.	.	.
8D\J	.	.	8f#/	.	8dd\	.	.	.	.	.	.	.	.	.	.	.
8r	.	.	8r	.	8r	.	.	.	.	.	.	.	.	.	.	.
!LO:LB:g=original	!	!	!	!	!LO:PB:g=original	!	!	!	!	!	!	!LO:LB:g=original	!	!	!	!
=54	=54	=54	=54	=54	=54	=54	=54	=54	=54	=54	=54	=54	=54	=54	=54	=54
!	!	!LO:DY:rj:a:t=p&colon;	!	!LO:DY:a:t=pio&colon;	!	!LO:DY:a	!	!	!	!	!	!	!	!	!	!
8D\L	.	p	8.ddL 8.f#\	p	8.ff#\L	p	2ryy	2ryy	8.f#\L	E	Ju-	8.dd\L	E	Ju-	2ryy	2ryy
8D\	.	.	.	.	.	.	.	.	.	.	.	.	.	.	.	.
.	.	.	32cc\LL	.	32ee\LL	.	.	.	32e\LL	.	.	32cc#X\LL	.	.	.	.
.	.	.	32dd\JJJ	.	32ff#\JJJ	.	.	.	32f#\JJJ	.	.	32dd\JJJ	.	.	.	.
8D\	4 2	.	8.ee\L	.	8.gg\L	.	.	.	8.g\	du-	-ra-	8.ee\	du-	-ra-	.	.
8D\J	_ _	.	.	.	.	.	.	.	.	.	.	.	.	.	.	.
.	.	.	32dd\LL	.	32ff#\LL	.	.	.	32f#\LLL	-ces	-vit	32dd\LLL	-ces	-vit	.	.
.	.	.	32ee\JJJ	.	32gg\JJJ	.	.	.	32g\JJJ	me	.	32ee\JJJ	me	.	.	.
!	!	!	!LO:LB:g=original	!	!	!	!	!	!LO:LB:g=original	!	!	!	!	!	!	!
=55	=55	=55	=55	=55	=55	=55	=55	=55	=55	=55	=55	=55	=55	=55	=55	=55
8D\L	3	.	8.ff#\L	.	8.aa\L	.	2ryy	2ryy	8.a\	la-	Do-	8.ff#\	la-	Do-	2ryy	2ryy
8D\	_	.	.	.	.	.	.	.	.	.	.	.	.	.	.	.
.	.	.	16gg\Jk	.	16bb\Jk	.	.	.	16b\	-que	-mi-	16gg\	-que	-mi-	.	.
8D\	.	.	8ff#\L	.	8aa\L	.	.	.	8a\	o	-nus	8ff#\	o	-nus	.	.
8D\J	.	.	8dd\J	.	8ff#\J	.	.	.	16f#\	me	et	16dd\	me	et	.	.
.	.	.	.	.	.	.	.	.	16f#\	de	non	16dd\	de	non	.	.
=56	=56	=56	=56	=56	=56	=56	=56	=56	=56	=56	=56	=56	=56	=56	=56	=56
8AA/	#	.	8cc#X\L	.	8ee\L	.	2ryy	2ryy	8e\	la-	pae-	8cc#X\	la-	pae-	2ryy	2ryy
8r	.	.	16cc#\L	.	16ee\L	.	.	.	16e\LL	-que	-ni-	16cc#\LL	-que	-ni-	.	.
.	.	.	16ee\JJ	.	16gg\JJ	.	.	.	16g\JJ	.	.	16ee\JJ	.	.	.	.
8D\	.	.	8dd\L	.	8ff#\L	.	.	.	8f#\	o	-te-	8dd\	o	-te-	.	.
8r	.	.	16dd\L	.	16ff#\L	.	.	.	16f#\LL	hoc	-bit	16dd\LL	hoc	-bit	.	.
.	.	.	16ff#\JJ	.	16aa\JJ	.	.	.	16a\JJ	.	.	16ff#\JJ	.	.	.	.
=57	=57	=57	=57	=57	=57	=57	=57	=57	=57	=57	=57	=57	=57	=57	=57	=57
.	.	.	.	.	8qaa/	.	.	.	8qqa/	.	.	.	.	.	.	.
8E/L	7	.	8dd\L	.	4gg\	.	2ryy	2ryy	4g\	E	e-	8dd\L	E	e-	2ryy	2ryy
8AA/	7 #	.	8cc#X\J	.	.	.	.	.	.	.	.	8cc#X\J	.	.	.	.
8D/J	.	.	8dd\L	.	8ff#\L	.	.	.	8f#\	du-	-um	8dd\	du-	-um	.	.
!	!	!	!	!	!	!	!	!	!	!	!	!LO:LB:g=original	!	!	!	!
8r	.	.	16dd\L	.	16ff#\L	.	.	.	16f#\LL	-ces	Et	16dd\LL	-ces	Et	.	.
.	.	.	16ff#\JJ	.	16aa\JJ	.	.	.	16a\JJ	.	.	16ff#\JJ	.	.	.	.
=58	=58	=58	=58	=58	=58	=58	=58	=58	=58	=58	=58	=58	=58	=58	=58	=58
8r	.	.	16ff#\LL	.	16aa\LL	.	2ryy	2ryy	16a\LL	me	non	16ff#\LL	me	non	2ryy	2ryy
.	.	.	16ee\J	.	16gg\J	.	.	.	16g\JJ	.	.	16ee\JJ	.	.	.	.
*	*	*	*	*	*	*	*	*	*	*	*	*	*	*ij	*	*
8A\L	#	.	8cc#X\J	.	8ee\J	.	.	.	8e\	me	non	8cc#X\	me	non	.	.
*	*	*	*	*	*	*	*	*	*	*	*	*	*	*Xij	*	*
8A\	_	.	8r	.	8r	.	.	.	8r	.	.	8r	.	.	.	.
!	!	!	!	!	!	!	!	!	!LO:LB:g=original	!	!	!	!	!	!	!
8A\J	x	.	16cc#\LL	.	16ee\LL	.	.	.	16e\	la-	pae-	16cc#\	la-	pae-	.	.
.	.	.	16ee\JJ	.	16gg\JJ	.	.	.	16g\	-que	-ni-	16ee\	-que	-ni-	.	.
!	!	!	!LO:PB:g=original	!	!	!	!	!	!	!	!	!	!	!	!	!
=59	=59	=59	=59	=59	=59	=59	=59	=59	=59	=59	=59	=59	=59	=59	=59	=59
!	!	!	!	!	!	!	!	!	!	!	!	!LO:SIC:s:v==16cc#	!	!	!	!
8r	.	.	16dd\LL	.	16ff#\LL	.	2ryy	2ryy	16f#\LL	o	-te-	16cc\LL	o	-te-	2ryy	2ryy
.	.	.	16ee\J	.	16gg\J	.	.	.	16g\JJ	.	.	16ee\JJ	.	.	.	.
8D\L	.	.	8ff#\J	.	8aa\J	.	.	.	8a\	hoc	-bit	8ff#\	hoc	-bit	.	.
!	!	!	!	!	!LO:LB:g=original	!	!	!	!	!	!	!	!	!	!	!
8D\	.	.	8r	.	8r	.	.	.	8r	.	.	8r	.	.	.	.
8D\J	.	.	8ff#\	.	8aa\	.	.	.	8a\	quem	non	8ff#\	quem	non	.	.
=60	=60	=60	=60	=60	=60	=60	=60	=60	=60	=60	=60	=60	=60	=60	=60	=60
8r	.	.	16ff#\LL	.	16aa\LL	.	2ryy	2ryy	16a\LL	ab-	pae-	16ff#\LL	ab-	pae-	2ryy	2ryy
.	.	.	16ee\	.	16gg\	.	.	.	16g\JJ	.	.	16ee\JJ	.	.	.	.
!LO:TX:a:t=P:problem=mixed beam	!	!	!	!	!	!	!	!	!	!	!	!	!	!	!	!
8G\L	6	.	16gg\	.	16bb\	.	.	.	16b\LL	-scon-	-ni-	16gg\LL	-scon-	-ni-	.	.
.	.	.	16ee\JJ	.	16gg\JJ	.	.	.	16g\JJ	.	.	16ee\JJ	.	.	.	.
8A\	4	.	16ee\LL	.	16gg\LL	.	.	.	16g\LL	-de-	-te-	16ee\LL	-de-	-te-	.	.
.	.	.	16dd\	.	16ff#\	.	.	.	16f#\JJ	.	.	16dd\JJ	.	.	.	.
8AA/J	#	.	16dd\	.	16ff#\	.	.	.	16f#\LL	-runt	-bit	16dd\LL	-runt	-bit	.	.
.	.	.	16cc#X\JJ	.	16ee\JJ	.	.	.	16e\JJ	.	.	16cc#X\JJ	.	.	.	.
!LO:LB:g=original	!	!	!	!	!	!	!	!	!	!	!	!LO:LB:g=original	!	!	!	!
=61	=61	=61	=61	=61	=61	=61	=61	=61	=61	=61	=61	=61	=61	=61	=61	=61
8D\L	.	.	8dd\L	.	8ff#\L	.	2ryy	2ryy	8f#\	mi-	e-	8dd\	mi-	e-	2ryy	2ryy
8d\	.	.	8dd 8f#\	.	8ff# 8a 8d\	.	.	.	8f#\	-hi	-um	8dd\	-hi	-um	.	.
8D\J	.	.	8ddJ 8f#\	.	8ff#J 8a 8d\	.	.	.	4r	.	.	8r	.	.	.	.
8r	.	.	8r	.	8r	.	.	.	.	.	.	16dd\LL	quem	tu	.	.
.	.	.	.	.	.	.	.	.	.	.	.	16b\JJ	.	.	.	.
=62	=62	=62	=62	=62	=62	=62	=62	=62	=62	=62	=62	=62	=62	=62	=62	=62
8r	.	.	8r	.	8r	.	2ryy	2ryy	1r	.	.	4.g#X\	abs-	es	2ryy	2ryy
8d\L	4# 2	.	8e/L	.	8b\L	.	.	.	.	.	.	.	.	.	.	.
8d\	_ _	.	8e/	.	8b\	.	.	.	.	.	.	.	.	.	.	.
8d\J	x	.	8e/J	.	8b\J	.	.	.	.	.	.	16f#\LL	-con-	sa-	.	.
.	.	.	.	.	.	.	.	.	.	.	.	16g#\JJ	.	.	.	.
=63	=63	=63	=63	=63	=63	=63	=63	=63	=63	=63	=63	=63	=63	=63	=63	=63
!	!	!	!	!	!	!	!	!	!	!	!	!LO:SIC:s:v==16g#	!	!	!	!
8r	.	.	8r	.	8r	.	2ryy	2ryy	.	.	.	16g\LL	-de-	-cer-	2ryy	2ryy
.	.	.	.	.	.	.	.	.	.	.	.	16a\JJ	.	.	.	.
8cn\L	6	.	8e/L	.	8a/L	.	.	.	.	.	.	4a\	-runt	-dos	.	.
8c\	_	.	8e/	.	8a/	.	.	.	.	.	.	.	.	.	.	.
*	*	*	*	*	*	*	*	*	*	*	*	*	*	*ij	*	*
8A\J	x	.	8e/J	.	8a/J	.	.	.	.	.	.	16cc\LL	mi-	sa-	.	.
.	.	.	.	.	.	.	.	.	.	.	.	16ee\JJ	.	.	.	.
=64	=64	=64	=64	=64	=64	=64	=64	=64	=64	=64	=64	=64	=64	=64	=64	=64
*	*	*	*tremolo	*	*	*	*	*	*	*	*	*	*	*	*	*
8G#X\L	6 5	.	8e/L	.	8b\L	.	2ryy	2ryy	2r	.	.	16ee\LL	.	-cer-	2ryy	2ryy
.	.	.	.	.	.	.	.	.	.	.	.	16dd\JJ	.	.	.	.
8G#\	_ _	.	8e/	.	8b\	.	.	.	.	.	.	16b\LL	.	-dos	.	.
*	*	*	*	*	*	*	*	*	*	*	*	*	*	*Xij	*	*
.	.	.	.	.	.	.	.	.	.	.	.	16g#X\JJ	.	.	.	.
8G#\	x	.	8e/	.	8b\	.	.	.	.	.	.	16e/LL	.	in	.	.
.	.	.	.	.	.	.	.	.	.	.	.	16g#/JJ	.	.	.	.
8G#\J	.	.	8e/J	.	8b\J	.	.	.	.	.	.	16b\LL	.	ae-	.	.
.	.	.	.	.	.	.	.	.	.	.	.	16dd\JJ	.	.	.	.
*	*	*	*Xtremolo	*	*	*	*	*	*	*	*	*	*	*	*	*
!	!	!	!LO:LB:g=original	!	!LO:LB:g=original	!	!	!	!	!	!	!LO:LB:g=original	!	!	!	!
=65	=65	=65	=65	=65	=65	=65	=65	=65	=65	=65	=65	=65	=65	=65	=65	=65
!LO:TX:a:t=P:problem=mixed beam	!	!	!	!	!	!	!	!	!	!	!	!	!	!	!	!
8A\L	3	.	8e/L	.	8cc\L	.	2ryy	2ryy	4r	.	.	16dd\LL	.	-ter-	2ryy	2ryy
.	_	.	.	.	.	.	.	.	.	.	.	16cc\JJ	.	.	.	.
8AA/	.	.	8e/	.	8cc\	.	.	.	.	.	.	8cc\	-hi	-num	.	.
8A\J	.	.	8e/J	.	8cc\J	.	.	.	8r	.	.	4r	.	.	.	.
8r	.	.	8r	.	8r	.	.	.	16cc\LL	ab-	tu	.	.	.	.	.
.	.	.	.	.	.	.	.	.	16a\JJ	.	.	.	.	.	.	.
!	!	!	!	!	!	!	!	!	!LO:LB:g=original	!	!	!	!	!	!	!
=66	=66	=66	=66	=66	=66	=66	=66	=66	=66	=66	=66	=66	=66	=66	=66	=66
8r	.	.	8r	.	8r	.	2ryy	2ryy	4.f#\	-scon-	es	1r	.	.	2ryy	2ryy
8c\L	4 2	.	8d/L	.	8a/L	.	.	.	.	.	.	.	.	.	.	.
8c\	_ _	.	8d/	.	8a/	.	.	.	.	.	.	.	.	.	.	.
8c\J	x	.	8d/J	.	8a/J	.	.	.	16e\LL	.	sa-	.	.	.	.	.
.	.	.	.	.	.	.	.	.	16f#\JJ	.	.	.	.	.	.	.
=67	=67	=67	=67	=67	=67	=67	=67	=67	=67	=67	=67	=67	=67	=67	=67	=67
8r	.	.	8r	.	8r	.	2ryy	2ryy	16f#\LL	-de-	-cer-	.	.	.	2ryy	2ryy
.	.	.	.	.	.	.	.	.	16g\JJ	.	.	.	.	.	.	.
8B\L	6	.	8d/L	.	8g/L	.	.	.	4g\	-runt	-dos	.	.	.	.	.
8B\	_	.	8d/	.	8g/	.	.	.	.	.	.	.	.	.	.	.
*	*	*	*	*	*	*	*	*	*	*	*ij	*	*	*	*	*
8G\J	x	.	8d/J	.	8g/J	.	.	.	16b\LL	ab-	sa-	.	.	.	.	.
.	.	.	.	.	.	.	.	.	16dd\JJ	.	.	.	.	.	.	.
!LO:LB:g=original	!	!	!	!	!	!	!	!	!	!	!	!	!	!	!	!
=68	=68	=68	=68	=68	=68	=68	=68	=68	=68	=68	=68	=68	=68	=68	=68	=68
*	*	*	*	*	*tremolo	*	*	*	*	*	*	*	*	*	*	*
8F#\L	6 5	.	8d/L	.	8a/L	.	2ryy	2ryy	16dd\LL	-scon-	-cer-	2r	.	.	2ryy	2ryy
.	.	.	.	.	.	.	.	.	16cc\JJ	.	.	.	.	.	.	.
8F#\	.	.	8d/	.	8a/	.	.	.	16a\LL	.	-dos	.	.	.	.	.
*	*	*	*	*	*	*	*	*	*	*	*Xij	*	*	*	*	*
.	_ _	.	.	.	.	.	.	.	16f#\JJ	.	.	.	.	.	.	.
8F#\	.	.	8d/	.	8a/	.	.	.	16d\LL	-de-	in	.	.	.	.	.
.	x	.	.	.	.	.	.	.	16f#\JJ	.	.	.	.	.	.	.
8F#\J	.	.	8d/J	.	8a/J	.	.	.	16a\LL	-runt	ae-	.	.	.	.	.
.	.	.	.	.	.	.	.	.	16cc\JJ	.	.	.	.	.	.	.
*	*	*	*	*	*Xtremolo	*	*	*	*	*	*	*	*	*	*	*
=69	=69	=69	=69	=69	=69	=69	=69	=69	=69	=69	=69	=69	=69	=69	=69	=69
!LO:TX:a:t=P:problem=mixed beam	!	!	!	!	!	!	!	!	!LO:SIC:o:l:v:t=nieczytelny tekst	!	!	!	!	!	!	!
8G\L	.	.	8d/L	.	8b\L	.	2ryy	2ryy	16cc\LL	mi-	-ter-	4r	.	.	2ryy	2ryy
.	.	.	.	.	.	.	.	.	16b\JJ	.	.	.	.	.	.	.
8GG/	.	.	8d/J	.	8b\J	.	.	.	8b\	-hi	-num	.	.	.	.	.
*	*	*	*	*	*	*	*	*	*	*	*ij	*	*	*	*	*
8G\	.	.	8.b\L	.	8.gg\L	.	.	.	8.b\	quo-	in	8.gg\	quo-	in	.	.
8G\J	7n 5	.	.	.	.	.	.	.	.	.	.	.	.	.	.	.
.	.	.	16dd\Jk	.	16ffn\Jk	.	.	.	16dd\	-ni-	ae-	16ff#\	-ni-	ae-	.	.
=70	=70	=70	=70	=70	=70	=70	=70	=70	=70	=70	=70	=70	=70	=70	=70	=70
8G\L	6 4	.	16dd\LL	.	16ff#\LL	.	2ryy	2ryy	16dd\LL	-am	-ter-	16ff#\LL	-am	-ter-	2ryy	2ryy
.	_ _	.	16cc\J	.	16ee\J	.	.	.	16cc\JJ	.	.	16ee\JJ	.	.	.	.
8G\	.	.	8cc\J	.	8ee\J	.	.	.	8cc\	tu	-num	8ee\	tu	-num	.	.
*	*	*	*	*	*	*	*	*	*	*	*Xij	*	*	*	*	*
!	!	!	!LO:LB:g=original	!	!	!	!	!	!LO:LB:g=original	!	!	!	!	!	!	!
8G\	7# 2	.	16a\LL	.	16ff#X\LL	.	.	.	16a\LL	.	Se-	16ff#X\LL	.	Se-	.	.
.	.	.	16b\	.	16gg\	.	.	.	16b\JJ	.	.	16gg\	.	.	.	.
8G\J	_ _	.	16cc\	.	16aa\	.	.	.	16cc\LL	.	.	16aa\	.	-cun-	.	.
.	.	.	16a\JJ	.	16ff#\JJ	.	.	.	16a\JJ	.	.	16ff#\JJ	.	.	.	.
!	!	!	!	!	!LO:LB:g=original	!	!	!	!	!	!	!	!	!	!	!
=71	=71	=71	=71	=71	=71	=71	=71	=71	=71	=71	=71	=71	=71	=71	=71	=71
8G\L	3	.	16cc\LL	.	16gg\LL	.	2ryy	2ryy	8b\	.	-cun-	16gg\LL	.	-dum	2ryy	2ryy
.	.	.	16b\J	.	16dd\J	.	.	.	.	.	.	16dd\JJ	.	.	.	.
8G\	.	.	8b\J	.	8dd\J	.	.	.	8b\	es	-dum	8dd\	es	.	.	.
!	!	!	!	!	!	!	!	!	!	!	!	!LO:LB:g=original	!	!	!	!
8G\	_	.	16b\LL	.	16gg\LL	.	.	.	4b\	pro-	or-	16gg\LL	pro-	or-	.	.
.	.	.	16dd\	.	16ff#\	.	.	.	.	.	.	16ff#\	.	.	.	.
8G\J	x	.	16cc\	.	16ee\	.	.	.	.	.	.	16ee\	.	.	.	.
.	.	.	16b\JJ	.	16dd\JJ	.	.	.	.	.	.	16dd\JJ	.	.	.	.
=72	=72	=72	=72	=72	=72	=72	=72	=72	=72	=72	=72	=72	=72	=72	=72	=72
8C/L	6	.	16b\LL	.	16dd\LL	.	2ryy	2ryy	16b\LL	-te-	.	16dd\LL	-te-	.	2ryy	2ryy
.	_	.	16a\	.	16cc\	.	.	.	16a\JJ	.	.	16cc\JJ	.	.	.	.
8C/	.	.	16cc\	.	16ee\	.	.	.	16cc\LL	-ctor	-di-	16ee\LL	-ctor	-di-	.	.
.	.	.	16b\JJ	.	16dd\JJ	.	.	.	16b\JJ	.	.	16dd\JJ	.	.	.	.
8C/	x	.	16b/LL	.	16dd\LL	.	.	.	16b\LL	me-	-nem	16dd\LL	me-	-nem	.	.
.	.	.	16a/	.	16cc\	.	.	.	16a\JJ	.	.	16cc\JJ	.	.	.	.
8C#X/J	5	.	16a/	.	16cc\	.	.	.	16a\LL	-us	mel-	16cc\LL	-us	mel-	.	.
.	.	.	16g/JJ	.	16b\JJ	.	.	.	16g\JJ	.	.	16b\JJ	.	.	.	.
=73	=73	=73	=73	=73	=73	=73	=73	=73	=73	=73	=73	=73	=73	=73	=73	=73
8D/L	4	.	8.g/L	.	8.b\L	.	2ryy	2ryy	8.g\	me-	-chi-	8.b\	me-	-chi-	2ryy	2ryy
8DD/J	.	.	.	.	.	.	.	.	.	.	.	.	.	.	.	.
.	.	.	32f#/LL	.	32a\LL	.	.	.	32f#\LLL	.	-se-	32a\LLL	.	-se-	.	.
.	.	.	32g/JJJ	.	32b\JJJ	.	.	.	32g\JJJ	.	.	32b\JJJ	.	.	.	.
16D/LL	3	.	8f#/	.	8a/	.	.	.	8f#\	-us	-dech	8a\	-us	-dech	.	.
16E/	.	.	.	.	.	.	.	.	.	.	.	.	.	.	.	.
16D/	.	.	8r	.	8r	.	.	.	8r	.	.	8r	.	.	.	.
16Cn/JJ	.	.	.	.	.	.	.	.	.	.	.	.	.	.	.	.
!	!	!	!	!	!	!	!	!	!LO:LB:g=original	!	!	!	!	!	!	!
=74	=74	=74	=74	=74	=74	=74	=74	=74	=74	=74	=74	=74	=74	=74	=74	=74
*tremolo	*	*	*	*	*	*	*	*	*	*	*	*	*	*	*	*
8BB/L	6	.	8d/L	.	8g/L	.	2ryy	2ryy	8.d\L	Glo-	tu	0r	.	.	2ryy	2ryy
8BB/	_	.	8d/	.	8g/	.	.	.	.	.	.	.	.	.	.	.
.	.	.	.	.	.	.	.	.	32e\LL	.	.	.	.	.	.	.
.	.	.	.	.	.	.	.	.	32f#\JJJ	.	.	.	.	.	.	.
8BB/	x	.	8d/	.	8g/	.	.	.	16g\LL	-ri-	es	.	.	.	.	.
.	.	.	.	.	.	.	.	.	16a\JJ	.	.	.	.	.	.	.
8BB/J	.	.	8d/J	.	8g/J	.	.	.	16b\LL	.	Sa-	.	.	.	.	.
.	.	.	.	.	.	.	.	.	16g\JJ	-a	.	.	.	.	.	.
*Xtremolo	*	*	*	*	*	*	*	*	*	*	*	*	*	*	*	*
!LO:LB:g=original	!	!	!LO:LB:g=original	!	!	!	!	!	!	!	!	!	!	!	!	!
=75	=75	=75	=75	=75	=75	=75	=75	=75	=75	=75	=75	=75	=75	=75	=75	=75
*	*	*	*	*	*tremolo	*	*	*	*	*	*	*	*	*	*	*
8C/L	.	.	8e/L	.	8g/L	.	2ryy	2ryy	16f#\LL	Pa-	-cer-	.	.	.	2ryy	2ryy
.	.	.	.	.	.	.	.	.	16e\	.	.	.	.	.	.	.
8C/	.	.	8e/	.	8g/	.	.	.	16d#X\	.	-dos	.	.	.	.	.
.	.	.	.	.	.	.	.	.	16e\JJ	.	.	.	.	.	.	.
8C/	.	.	8e/	.	8g/	.	.	.	8e\	-tri	.	.	.	.	.	.
8C/J	.	.	8e/J	.	8g/J	.	.	.	8r	.	.	.	.	.	.	.
*	*	*	*	*	*Xtremolo	*	*	*	*	*	*	*	*	*	*	*
=76	=76	=76	=76	=76	=76	=76	=76	=76	=76	=76	=76	=76	=76	=76	=76	=76
8C/L	.	.	8e/L	.	8g/L	.	2ryy	2ryy	8.e\L	et	in-	.	.	.	2ryy	2ryy
8C/	.	.	8e/	.	8g/	.	.	.	.	.	.	.	.	.	.	.
.	.	.	.	.	.	.	.	.	32f#\LL	.	.	.	.	.	.	.
.	.	.	.	.	.	.	.	.	32g\JJJ	.	.	.	.	.	.	.
8C/	6	.	8e/	.	8a/	.	.	.	16a\LL	fi-	.	.	.	.	.	.
.	.	.	.	.	.	.	.	.	16b\JJ	.	.	.	.	.	.	.
8C#X/J	_	.	8e/J	.	8a/J	.	.	.	16cc\LL	.	-ae-	.	.	.	.	.
.	.	.	.	.	.	.	.	.	16a\JJ	.	.	.	.	.	.	.
!	!	!	!	!	!LO:LB:g=original	!	!	!	!	!	!	!	!	!	!	!
=77	=77	=77	=77	=77	=77	=77	=77	=77	=77	=77	=77	=77	=77	=77	=77	=77
!LO:TX:a:t=P:problem=mixed beam	!	!	!	!	!	!	!	!	!	!	!	!	!	!	!	!
8D\L	4	.	8.B/L	.	4g/	.	2ryy	2ryy	8.g\L	.	-ter-	.	.	.	2ryy	2ryy
8D\	3	.	.	.	.	.	.	.	.	.	.	.	.	.	.	.
.	.	.	32A/LL	.	.	.	.	.	32f#\LL	.	-num	.	.	.	.	.
.	.	.	32B/JJJ	.	.	.	.	.	32g\JJJ	-li-	.	.	.	.	.	.
8DD/	.	.	8A/	.	8f#/	.	.	.	8g\	-o	.	.	.	.	.	.
8DD/J	.	.	8r	.	8r	.	.	.	8r	.	.	.	.	.	.	.
!	!	!	!	!	!	!	!	!	!LO:LB:g=original	!	!	!	!	!	!	!
=78	=78	=78	=78	=78	=78	=78	=78	=78	=78	=78	=78	=78	=78	=78	=78	=78
8r	.	.	8r	.	8r	.	2ryy	2ryy	8.f#\L	glo-	Se-	8.a\L	glo-	Se-	2ryy	2ryy
8D\L	.	.	8f#/L	.	8a/L	.	.	.	.	.	.	.	.	.	.	.
.	.	.	.	.	.	.	.	.	32g\LL	.	.	32b\LL	.	.	.	.
.	.	.	.	.	.	.	.	.	32a\JJJ	.	.	32cc\JJJ	.	.	.	.
8D\	.	.	8f#/	.	8a/	.	.	.	16b\LL	-ri-	-cun-	16dd\LL	-ri-	-cun-	.	.
.	.	.	.	.	.	.	.	.	16a\JJ	.	.	16cc\JJ	.	.	.	.
8D\J	.	.	8f#/J	.	8a/J	.	.	.	16g\LL	.	-dum	16b\LL	.	-dum	.	.
.	.	.	.	.	.	.	.	.	16f#\JJ	-a	.	16a\JJ	-a	.	.	.
!	!	!	!	!	!	!	!	!	!	!	!	!LO:LB:g=original	!	!	!	!
=79	=79	=79	=79	=79	=79	=79	=79	=79	=79	=79	=79	=79	=79	=79	=79	=79
8r	.	.	8r	.	8r	.	2ryy	2ryy	8.g\	Pa-	ord-	8.b\	Pa-	ord-	2ryy	2ryy
8G\L	.	.	8d/L	.	8b\L	.	.	.	.	.	.	.	.	.	.	.
.	.	.	.	.	.	.	.	.	16a\	.	-di-	16cc\	.	-di-	.	.
8G\	.	.	8d/	.	8b\	.	.	.	8b\	-tri	-nem	8dd\	-tri	-nem	.	.
8G\J	.	.	8d/J	.	8b\J	.	.	.	8r	.	.	8r	.	.	.	.
=80	=80	=80	=80	=80	=80	=80	=80	=80	=80	=80	=80	=80	=80	=80	=80	=80
*	*	*	*	*	*	*	*	*	*	*	*ij	*	*	*	*	*
8r	.	.	8r	.	8r	.	2ryy	2ryy	16b\LL	et	Se-	16dd\LL	et	Se-	2ryy	2ryy
.	.	.	.	.	.	.	.	.	16g\	.	.	16b\	.	.	.	.
8G\L	.	.	8d/L	.	8b\L	.	.	.	16a\	.	-cun-	16cc\	.	-cun-	.	.
.	.	.	.	.	.	.	.	.	16b\JJ	.	.	16dd\JJ	.	.	.	.
8G\	.	.	8d/	.	8b\	.	.	.	16cc\LL	.	.	16ee\LL	.	.	.	.
.	.	.	.	.	.	.	.	.	16b\JJ	.	.	16dd\JJ	.	.	.	.
8G\J	.	.	8d/J	.	8b\J	.	.	.	16a\LL	.	-dum	16cc\LL	.	-dum	.	.
.	.	.	.	.	.	.	.	.	16g\JJ	.	.	16b\JJ	.	.	.	.
!	!	!	!LO:LB:g=original	!	!	!	!	!	!	!	!	!	!	!	!	!
=81	=81	=81	=81	=81	=81	=81	=81	=81	=81	=81	=81	=81	=81	=81	=81	=81
8r	.	.	8r	.	8r	.	2ryy	2ryy	8.f#\	fi-	or-	8.a\	fi-	or-	2ryy	2ryy
8D\L	.	.	8f#/L	.	8a/L	.	.	.	.	.	.	.	.	.	.	.
.	.	.	.	.	.	.	.	.	16g\	-li-	-di-	16b\	-li-	-di-	.	.
8D\	.	.	8f#/	.	8a/	.	.	.	8a\	-o	-nem	8cc\	-o	-nem	.	.
*	*	*	*	*	*	*	*	*	*	*	*Xij	*	*	*	*	*
8D\J	.	.	8f#/J	.	8a/J	.	.	.	8r	.	.	8r	.	.	.	.
!LO:LB:g=original	!	!	!	!	!	!	!	!	!LO:LB:g=original	!	!	!LO:PB:g=original	!	!	!	!
=82	=82	=82	=82	=82	=82	=82	=82	=82	=82	=82	=82	=82	=82	=82	=82	=82
8r	.	.	8r	.	8r	.	2ryy	2ryy	16a\LL	et	or-	16cc\LL	et	or-	2ryy	2ryy
.	.	.	.	.	.	.	.	.	16f#\JJ	.	.	16a\JJ	.	.	.	.
8D\L	.	.	8f#/L	.	8a/L	.	.	.	16f#\LL	spi-	-di-	16b\LL	spi-	-di-	.	.
.	.	.	.	.	.	.	.	.	16a\JJ	.	.	16cc\JJ	.	.	.	.
8D\	.	.	8f#/	.	8a/	.	.	.	16b\LL	-ri-	-nem	16dd\LL	-ri-	-nem	.	.
.	.	.	.	.	.	.	.	.	16a\JJ	.	.	16cc\JJ	.	.	.	.
8D\J	.	.	8f#/J	.	8a/J	.	.	.	16g\LL	-tu-	mel-	16b\LL	-tu-	mel-	.	.
.	.	.	.	.	.	.	.	.	16f#\JJ	-i	.	16a\JJ	-i	.	.	.
=83	=83	=83	=83	=83	=83	=83	=83	=83	=83	=83	=83	=83	=83	=83	=83	=83
8r	.	.	8r	.	8r	.	2ryy	2ryy	8.g\	San-	-chi-	8.b\	San-	-chi-	2ryy	2ryy
8G\L	.	.	8d/L	.	8b\L	.	.	.	.	.	.	.	.	.	.	.
.	.	.	.	.	.	.	.	.	16a\	.	-se-	16cc\	.	-se-	.	.
8G\	.	.	8d/	.	8b\	.	.	.	8b\	-cto	-dech	8dd\	-cto	-dech	.	.
8G\J	.	.	8b/J	.	8dd\J	.	.	.	[8b\	si-	tu	[8dd\	si-	tu	.	.
!	!	!	!	!	!LO:LB:g=original	!	!	!	!	!	!	!	!	!	!	!
=84	=84	=84	=84	=84	=84	=84	=84	=84	=84	=84	=84	=84	=84	=84	=84	=84
8G\L	6 4	.	16b\LL	.	16dd\LL	.	2ryy	2ryy	16b\LL]	.	.	16dd\LL]	.	.	2ryy	2ryy
.	.	.	16cc\JJ	.	16ee\JJ	.	.	.	16cc\JJ	.	.	16ee\JJ	.	.	.	.
8G\	_	.	4cc\	.	4ee\	.	.	.	4cc\	-cut	es	4ee\	-cut	es	.	.
8G\	.	.	.	.	.	.	.	.	.	.	.	.	.	.	.	.
8G\J	7 2	.	8a/	.	8ff#\	.	.	.	8a\	.	Sa-	8ff#\	.	Sa-	.	.
=85	=85	=85	=85	=85	=85	=85	=85	=85	=85	=85	=85	=85	=85	=85	=85	=85
8G\L	3	.	16a/LL	.	16ff#\LL	.	2ryy	2ryy	16a\LL	e-	-cer-	16ff#\LL	e-	-cer-	2ryy	2ryy
.	.	.	16b/JJ	.	16gg\JJ	.	.	.	16b\JJ	.	.	16gg\JJ	.	.	.	.
8G\	_	.	4b/	.	4gg\	.	.	.	4b\	-rat	-dos	4gg\	-rat	-dos	.	.
8G\	.	.	.	.	.	.	.	.	.	.	.	.	.	.	.	.
!	!	!	!	!	!LO:SIC:s:v==8ff#	!	!	!	!	!	!	!	!	!	!	!
8G\J	7n 5	.	8dd\	.	8ffn\	.	.	.	8dd\	et	in	8ffn\	et	in	.	.
!	!	!	!	!	!	!	!	!	!LO:PB:g=original	!	!	!LO:LB:g=original	!	!	!	!
=86	=86	=86	=86	=86	=86	=86	=86	=86	=86	=86	=86	=86	=86	=86	=86	=86
8G\L	6 4	.	16dd\LL	.	16ff#\LL	.	2ryy	2ryy	16dd\LL	nunc	ae-	16ff#\LL	nunc	ae-	2ryy	2ryy
.	.	.	16cc\JJ	.	16ee\JJ	.	.	.	16cc\JJ	.	.	16ee\JJ	.	.	.	.
!	!	!	!LO:LB:g=original	!	!	!	!	!	!	!	!	!	!	!	!	!
8G\	_ _	.	4cc\	.	4ee\	.	.	.	4cc\	.	-ter-	4ee\	.	-ter-	.	.
8G\	7# 2	.	.	.	.	.	.	.	.	.	.	.	.	.	.	.
8G\J	.	.	8a/	.	8ff#X\	.	.	.	8a\	et	.	8ff#X\	et	.	.	.
=87	=87	=87	=87	=87	=87	=87	=87	=87	=87	=87	=87	=87	=87	=87	=87	=87
8G\L	3	.	16a/LL	.	16ff#\LL	.	2ryy	2ryy	16a\LL	sem-	.	16ff#\LL	sem-	.	2ryy	2ryy
.	.	.	16b/JJ	.	16gg\JJ	.	.	.	16b\JJ	.	.	16gg\JJ	.	.	.	.
8G\	_	.	4b/	.	4gg\	.	.	.	4b\	-per	-num	4gg\	-per	-num	.	.
8G\	.	.	.	.	.	.	.	.	.	.	.	.	.	.	.	.
8G\J	x	.	8a/	.	8dd\	.	.	.	8b\	et	Se-	8dd\	et	Se-	.	.
!LO:PB:g=original	!	!	!	!	!	!	!	!	!	!	!	!	!	!	!	!
=88	=88	=88	=88	=88	=88	=88	=88	=88	=88	=88	=88	=88	=88	=88	=88	=88
8c\L	6	.	16b/LL	.	16dd\LL	.	2ryy	2ryy	16b\LL	.	.	16dd\LL	.	.	2ryy	2ryy
.	.	.	16a/	.	16cc\	.	.	.	16a\	.	.	16cc\	.	.	.	.
8c\	_	.	16cc/	.	16ee\	.	.	.	16cc\	in	.	16ee\	in	.	.	.
.	.	.	16b/JJ	.	16dd\JJ	.	.	.	16b\JJ	.	.	16dd\JJ	.	.	.	.
8c\	.	.	16b/LL	.	16dd\LL	.	.	.	16b\LL	sae-	-cun-	16dd\LL	sae-	-cun-	.	.
.	.	.	16a/	.	16cc\	.	.	.	16a\JJ	.	.	16cc\JJ	.	.	.	.
8c#X\J	5	.	16a/	.	16cc\	.	.	.	16a\LL	-cu-	-dum	16cc\LL	-cu-	-dum	.	.
.	.	.	16g/JJ	.	16b\JJ	.	.	.	16g\JJ	-la	.	16b\JJ	-la	.	.	.
!	!	!	!	!	!LO:LB:g=original	!	!	!	!	!	!	!	!	!	!	!
=89	=89	=89	=89	=89	=89	=89	=89	=89	=89	=89	=89	=89	=89	=89	=89	=89
8d\L	3	.	8.f#/L	.	8.a/L	.	2ryy	2ryy	8.f#\	sae-	or-	8.a\	sae-	or-	2ryy	2ryy
8cn\	_	.	.	.	.	.	.	.	.	.	.	.	.	.	.	.
.	.	.	32e/LL	.	32g/LL	.	.	.	32e\LLL	-cu-	-di-	32g\LLL	-cu-	-di-	.	.
.	.	.	32f#/JJJ	.	32a/JJJ	.	.	.	32f#\JJJ	.	.	32a\JJJ	.	.	.	.
8B\	6	.	8g/L	.	8b\L	.	.	.	8g\	-lo-	-nem	8b\	-lo-	-nem	.	.
8A\J	.	.	16g/L	.	16b\L	.	.	.	16g\LL	-rum	mel-	16b\LL	-rum	mel-	.	.
.	.	.	16b/JJ	.	16dd\JJ	.	.	.	16b\JJ	.	.	16dd\JJ	.	.	.	.
!	!	!	!	!	!	!	!	!	!LO:LB:g=original	!	!	!LO:LB:g=original	!	!	!	!
=90	=90	=90	=90	=90	=90	=90	=90	=90	=90	=90	=90	=90	=90	=90	=90	=90
!LO:TX:a:t=P:problem=mixed beam	!	!	!	!	!	!	!	!	!	!	!	!	!	!	!	!
8c\L	6	.	16a/LL	.	16cc\LL	.	2ryy	2ryy	16a\LL	A-	.	16cc\LL	A-	.	2ryy	2ryy
.	.	.	16cc/	.	16ee\	.	.	.	16cc\	.	.	16ee\	.	.	.	.
8c\	.	.	16b/	.	16dd\	.	.	.	16b\	-men	.	16dd\	-men	.	.	.
.	.	.	16cc/JJ	.	16cc\JJ	.	.	.	16a\JJ	.	.	16b\JJ	.	.	.	.
!	!	!	!LO:LB:g=original	!	!	!	!	!	!	!	!	!	!	!	!	!
8d\	4	.	16a/LL	.	16cc\LL	.	.	.	16a\LL	a-	-chi-	16cc\LL	a-	-chi-	.	.
.	.	.	16g/	.	16b\	.	.	.	16g\JJ	.	.	16b\JJ	.	.	.	.
8D/J	3	.	16g/	.	16b\	.	.	.	16g\LL	.	-se-	16b\LL	.	-se-	.	.
.	.	.	16f#/JJ	.	16a\JJ	.	.	.	16f#\JJ	.	.	16a\JJ	.	.	.	.
=91	=91	=91	=91	=91	=91	=91	=91	=91	=91	=91	=91	=91	=91	=91	=91	=91
!	!	!LO:DY:a:t=f.	!	!LO:DY:a:t=f.	!	!LO:DY:rj:a	!	!	!	!	!	!	!	!	!	!
8G\L	.	f	8g\L	f	16b\LL	f	2ryy	2ryy	4g\	-men.	-dech	4b\	-men.	-dech	2ryy	2ryy
.	.	.	.	.	16ddd\	.	.	.	.	.	.	.	.	.	.	.
8G\	.	.	8b\	.	16ccc\	.	.	.	.	.	.	.	.	.	.	.
.	.	.	.	.	16bb\JJ	.	.	.	.	.	.	.	.	.	.	.
8B\	6	.	8dd\	.	16aa\LL	.	.	.	4r	.	.	4r	.	.	.	.
.	.	.	.	.	16gg\	.	.	.	.	.	.	.	.	.	.	.
8B\J	.	.	8dd\J	.	16ff#\	.	.	.	.	.	.	.	.	.	.	.
.	.	.	.	.	16gg\JJ	.	.	.	.	.	.	.	.	.	.	.
=92	=92	=92	=92	=92	=92	=92	=92	=92	=92	=92	=92	=92	=92	=92	=92	=92
8c\L	6	.	8ee\L	.	16aa\LL	.	2ryy	2ryy	0r	.	.	0r	.	.	2ryy	2ryy
.	.	.	.	.	16bb\	.	.	.	.	.	.	.	.	.	.	.
8c\	.	.	8ee\	.	16ccc\	.	.	.	.	.	.	.	.	.	.	.
.	.	.	.	.	16aa\JJ	.	.	.	.	.	.	.	.	.	.	.
8d\	.	.	8a\	.	16gg\LL	.	.	.	.	.	.	.	.	.	.	.
.	.	.	.	.	16ff#\	.	.	.	.	.	.	.	.	.	.	.
8d\J	.	.	8a\J	.	16ee\	.	.	.	.	.	.	.	.	.	.	.
.	.	.	.	.	16ff#\JJ	.	.	.	.	.	.	.	.	.	.	.
=93	=93	=93	=93	=93	=93	=93	=93	=93	=93	=93	=93	=93	=93	=93	=93	=93
8e\L	3	.	8b\L	.	16gg\LL	.	2ryy	2ryy	.	.	.	.	.	.	2ryy	2ryy
.	_	.	.	.	16aa\	.	.	.	.	.	.	.	.	.	.	.
8d\	.	.	8b\	.	16bb\	.	.	.	.	.	.	.	.	.	.	.
.	.	.	.	.	16gg\JJ	.	.	.	.	.	.	.	.	.	.	.
!	!	!	!	!	!LO:LB:g=original	!	!	!	!	!	!	!	!	!	!	!
8c\	6	.	8ee\	.	16aa\LL	.	.	.	.	.	.	.	.	.	.	.
.	_	.	.	.	16ccc\	.	.	.	.	.	.	.	.	.	.	.
8c#X\J	.	.	8ee\J	.	16ee\	.	.	.	.	.	.	.	.	.	.	.
.	.	.	.	.	16aa\JJ	.	.	.	.	.	.	.	.	.	.	.
=94	=94	=94	=94	=94	=94	=94	=94	=94	=94	=94	=94	=94	=94	=94	=94	=94
8d\L	3	.	8a/L	.	8.ff#\L	.	2ryy	2ryy	.	.	.	.	.	.	2ryy	2ryy
8cn\	_	.	8a/	.	.	.	.	.	.	.	.	.	.	.	.	.
.	.	.	.	.	32ee\LL	.	.	.	.	.	.	.	.	.	.	.
.	.	.	.	.	32ff#\JJJ	.	.	.	.	.	.	.	.	.	.	.
8B\J	6	.	8b/	.	8gg\L	.	.	.	.	.	.	.	.	.	.	.
!	!	!	!	!LO:DY:a:t=p&colon;	!	!LO:DY:a	!	!	!	!	!	!	!	!	!	!
8r	.	.	8d/J	p	8dd\J	p	.	.	.	.	.	.	.	.	.	.
!LO:LB:g=original	!	!	!	!	!	!	!	!	!	!	!	!	!	!	!	!
=95	=95	=95	=95	=95	=95	=95	=95	=95	=95	=95	=95	=95	=95	=95	=95	=95
!	!	!LO:DY:rj:a:t=p&colon;	!LO:TX:b:t=|	!	!LO:TX:a:t=|	!	!	!	!	!	!	!	!	!	!	!
8c\L	.	p	16e/LL	.	16ee\LL	.	2ryy	2ryy	.	.	.	.	.	.	2ryy	2ryy
!	!	!	!LO:TX:b:t=|	!	!LO:TX:a:t=|	!	!	!	!	!	!	!	!	!	!	!
.	.	.	16e/JJ	.	16ee\JJ	.	.	.	.	.	.	.	.	.	.	.
8A\	6	.	(16f#/LL	.	(16ff#\LL	.	.	.	.	.	.	.	.	.	.	.
.	.	.	32e/L	.	32ee\L	.	.	.	.	.	.	.	.	.	.	.
.	.	.	32f#/JJJ	.	32ff#\JJJ	.	.	.	.	.	.	.	.	.	.	.
8B\J	6	.	16g/LL)	.	16gg\LL)	.	.	.	.	.	.	.	.	.	.	.
!	!	!	!LO:TX:b:t=|	!	!LO:TX:a:t=|	!	!	!	!	!	!	!	!	!	!	!
.	.	.	16g/	.	16gg\	.	.	.	.	.	.	.	.	.	.	.
!	!	!	!LO:TX:b:t=|	!	!LO:TX:a:t=|	!	!	!	!	!	!	!	!	!	!	!
8r	.	.	16d/	.	16dd\	.	.	.	.	.	.	.	.	.	.	.
!	!	!	!LO:TX:b:t=|	!	!LO:TX:a:t=|	!	!	!	!	!	!	!	!	!	!	!
.	.	.	16d/JJ	.	16dd\JJ	.	.	.	.	.	.	.	.	.	.	.
!	!	!	!LO:LB:g=original	!	!	!	!	!	!	!	!	!	!	!	!	!
=96	=96	=96	=96	=96	=96	=96	=96	=96	=96	=96	=96	=96	=96	=96	=96	=96
!	!	!	!LO:TX:b:t=|	!	!LO:TX:a:t=|	!	!	!	!	!	!	!	!	!	!	!
8c\L	.	.	16e/LL	.	16ee\LL	.	2ryy	2ryy	0r	.	.	0r	.	.	2ryy	2ryy
!	!	!	!LO:TX:b:t=|	!	!LO:TX:a:t=|	!	!	!	!	!	!	!	!	!	!	!
.	.	.	16e/JJ	.	16ee\JJ	.	.	.	.	.	.	.	.	.	.	.
8A\	6	.	(16f#/LL	.	(16ff#\LL	.	.	.	.	.	.	.	.	.	.	.
.	.	.	32e/L	.	32ee\L	.	.	.	.	.	.	.	.	.	.	.
.	.	.	32f#/JJJ)	.	32ff#\JJJ)	.	.	.	.	.	.	.	.	.	.	.
!	!	!	!LO:TX:b:t=|	!	!LO:TX:a:t=|	!	!	!	!	!	!	!	!	!	!	!
8B\J	6	.	16g/LL	.	16gg\LL	.	.	.	.	.	.	.	.	.	.	.
!	!	!	!LO:TX:b:t=|	!	!LO:TX:a:t=|	!	!	!	!	!	!	!	!	!	!	!
.	.	.	16g/	.	16gg\	.	.	.	.	.	.	.	.	.	.	.
!	!	!	!LO:TX:b:t=|	!	!LO:TX:a:t=|	!	!	!	!	!	!	!	!	!	!	!
8r	.	.	16d/	.	16dd\	.	.	.	.	.	.	.	.	.	.	.
!	!	!	!LO:TX:b:t=|	!	!LO:TX:a:t=|	!	!	!	!	!	!	!	!	!	!	!
.	.	.	16d/JJ	.	16dd\JJ	.	.	.	.	.	.	.	.	.	.	.
=97	=97	=97	=97	=97	=97	=97	=97	=97	=97	=97	=97	=97	=97	=97	=97	=97
!	!	!	!LO:TX:b:t=|	!	!LO:TX:a:t=|	!	!	!	!	!	!	!	!	!	!	!
8c\L	.	<	16e/LL	.	16ee\LL	.	2ryy	2ryy	.	.	.	.	.	.	2ryy	2ryy
!	!	!	!LO:TX:b:t=|	!	!LO:TX:a:t=|	!	!	!	!	!	!	!	!	!	!	!
.	.	.	16e/JJ	.	16ee\JJ	.	.	.	.	.	.	.	.	.	.	.
!	!	!	!	!	!LO:LB:g=original	!	!	!	!	!	!	!	!	!	!	!
8A\	6	.	(16f#/LL	.	(16ff#\LL	.	.	.	.	.	.	.	.	.	.	.
.	.	.	32e/L	<	32ee\L	.	.	.	.	.	.	.	.	.	.	.
.	.	.	32f#/JJJ	.	32ff#\JJJ	.	.	.	.	.	.	.	.	.	.	.
8B\	6	.	16g/LL)	.	16gg\LL)	<	.	.	.	.	.	.	.	.	.	.
!	!	!	!LO:TX:b:t=|	!	!LO:TX:a:t=|	!	!	!	!	!	!	!	!	!	!	!
.	.	.	16g/JJ	.	16gg\JJ	.	.	.	.	.	.	.	.	.	.	.
8G\J	.	.	(16a/LL	.	(16aa\LL	.	.	.	.	.	.	.	.	.	.	.
.	.	.	32a/L	.	32aa\L	.	.	.	.	.	.	.	.	.	.	.
.	.	.	32b/JJJ)	[[	32bb\JJJ	[[	.	.	.	.	.	.	.	.	.	.
=98	=98	=98	=98	=98	=98	=98	=98	=98	=98	=98	=98	=98	=98	=98	=98	=98
8F#\L	6	.	16a/LL	.	16aa\LL)	.	2ryy	2ryy	.	.	.	.	.	.	2ryy	2ryy
.	.	.	16d/	.	16dd\	.	.	.	.	.	.	.	.	.	.	.
8D\	.	[	16cc/	.	16ccc\	.	.	.	.	.	.	.	.	.	.	.
.	.	.	16a/JJ	.	16aa\JJ	.	.	.	.	.	.	.	.	.	.	.
8d\	3	.	8.aL 8.d/	f	8.ff#t\L	f	.	.	.	.	.	.	.	.	.	.
8c\J	_	f	.	.	.	.	.	.	.	.	.	.	.	.	.	.
.	x	.	32g/LL	.	32ee\LL	.	.	.	.	.	.	.	.	.	.	.
.	.	.	32a/JJJ	.	32ff#\JJJ	.	.	.	.	.	.	.	.	.	.	.
=99	=99	=99	=99	=99	=99	=99	=99	=99	=99	=99	=99	=99	=99	=99	=99	=99
8B\L	6	.	8b/L	.	16gg\LL	.	2ryy	2ryy	.	.	.	.	.	.	2ryy	2ryy
.	.	.	.	.	16dd\	.	.	.	.	.	.	.	.	.	.	.
8c\	6	.	16cc/L	.	16ee\	.	.	.	.	.	.	.	.	.	.	.
.	.	.	16a/JJ	.	16cc\JJ	.	.	.	.	.	.	.	.	.	.	.
8d\	4	.	8g/L	.	8b\L	.	.	.	.	.	.	.	.	.	.	.
8D\J	3	.	8f#/J	.	8a\J	.	.	.	.	.	.	.	.	.	.	.
!	!	!	!LO:LB:g=original	!	!	!	!	!	!	!	!	!	!	!	!	!
=100	=100	=100	=100	=100	=100	=100	=100	=100	=100	=100	=100	=100	=100	=100	=100	=100
!LO:TX:a:t=P:problem=mixed beam	!	!	!	!	!	!	!	!	!	!	!	!	!	!	!	!
8G\L	.	.	8g/L	.	8b\L	.	2ryy	2ryy	2r	.	.	2r	.	.	2ryy	2ryy
8GG/	.	.	16g/L	.	16b\L	.	.	.	.	.	.	.	.	.	.	.
.	.	.	16b/JJ	.	16dd\JJ	.	.	.	.	.	.	.	.	.	.	.
8G\J	.	.	8g/	.	8b\	.	.	.	.	.	.	.	.	.	.	.
8r	.	.	8r	.	8r	.	.	.	.	.	.	.	.	.	.	.
==	==	==	==	==	==	==	==	==	==	==	==	==	==	==	==	==
*-	*-	*-	*-	*-	*-	*-	*-	*-	*-	*-	*-	*-	*-	*-	*-	*-
!!!system-decoration: [(s1,s2)][(s3,s4,s5,s6)][(s7,s8)]s9
!!!RDF**kern: > = above
!!!RDF**kern: < = below
!!!RDF**dynam: p = p:
!!!RDF**dynam: f = for:
!!!ENC: Anastazja Marusiak
!!!END: 2020-07-13
!!!ENC: Leszek Kubiak
!!!END: 2022-01-13
!!!YEC: Copyright 2022 Narodowy Instytut Fryderyka Chopina (https://polishscores.org)
!!!YEM: Licence CC BY 4.0 (https://creativecommons.org/licenses/by/4.0)
